; generated by PrusaSlicer 2.4.0+win64 on 2022-01-12 at 11:17:06 UTC

; 

; external perimeters extrusion width = 0.45mm
; perimeters extrusion width = 0.45mm
; infill extrusion width = 0.45mm
; solid infill extrusion width = 0.45mm
; top infill extrusion width = 0.40mm
; first layer extrusion width = 0.42mm

M73 P0 R36
M73 Q0 S36
M201 X1000 Y1000 Z200 E5000 ; sets maximum accelerations, mm/sec^2
M203 X200 Y200 Z12 E120 ; sets maximum feedrates, mm/sec
M204 P1250 R1250 T1250 ; sets acceleration (P, T) and retract acceleration (R), mm/sec^2
M205 X8.00 Y8.00 Z0.40 E4.50 ; sets the jerk limits, mm/sec
M205 S0 T0 ; sets the minimum extruding and travel feed rate, mm/sec
M107
;TYPE:Custom
M862.3 P "MK3S" ; printer model check
M862.1 P0.4 ; nozzle diameter check
M115 U3.10.1 ; tell printer latest fw version
G90 ; use absolute coordinates
M83 ; extruder relative mode
M104 S215 ; set extruder temp
M140 S60 ; set bed temp
M190 S60 ; wait for bed temp
M109 S215 ; wait for extruder temp
G28 W ; home all without mesh bed level
G80 ; mesh bed leveling
G1 Z0.2 F720
G1 Y-3 F1000 ; go outside print area
G92 E0
G1 X60 E9 F1000 ; intro line
G1 X100 E12.5 F1000 ; intro line
G92 E0
M221 S95

; Don't change E values below. Excessive value can damage the printer.

M907 E538 ; set extruder motor current
G21 ; set units to millimeters
G90 ; use absolute coordinates
M83 ; use relative distances for extrusion
M900 K0.05 ; Filament gcode LA 1.5
M900 K30 ; Filament gcode LA 1.0
M107
;LAYER_CHANGE
;Z:0.2
;HEIGHT:0.2
;BEFORE_LAYER_CHANGE
G92 E0.0
;0.2


G1 E-.8 F2100
G1 Z.4 F10800
;AFTER_LAYER_CHANGE
;0.2
G1 X51.381 Y89.472
G1 Z.2
G1 E.8 F2100
M204 S1000
;TYPE:Skirt/Brim
;WIDTH:0.42
G1 F1200
G1 X52.523 Y89.086 E.03779
G1 X53.408 Y88.989 E.02794
G1 X93.607 Y88.875 E1.26041
G1 X214.724 Y88.895 E3.79754
G1 X215.307 Y88.972 E.01842
G1 X216.449 Y89.357 E.03779
G1 X217.452 Y90.025 E.03779
G1 X217.891 Y90.464 E.01946
G1 X218.248 Y90.93 E.01842
G1 X218.783 Y92.01 E.03779
G1 X218.944 Y92.609 E.01946
G1 X219.041 Y93.502 E.02815
G1 X218.966 Y116.507 E.7213
G1 X218.869 Y117.391 E.02788
G1 X218.483 Y118.533 E.03779
G1 X218.173 Y119.07 E.01946
G1 X217.377 Y119.975 E.03779
G1 X216.373 Y120.643 E.03779
G1 X215.231 Y121.028 E.03779
G1 X214.338 Y121.125 E.02815
G1 X35.586 Y121.125 E5.60466
G1 X34.693 Y121.028 E.02815
M73 P1 R35
M73 Q1 S36
G1 X34.094 Y120.867 E.01946
G1 X33.014 Y120.332 E.03779
G1 X32.548 Y119.975 E.01842
G1 X32.109 Y119.536 E.01946
G1 X31.441 Y118.533 E.03779
G1 X31.056 Y117.391 E.03779
G1 X30.959 Y116.498 E.02815
G1 X30.979 Y113.688 E.08812
G1 X31.217 Y112.506 E.03779
G1 X31.752 Y111.426 E.03779
G1 X50.035 Y90.46 E.87222
G1 X50.843 Y89.782 E.03308
G1 X51.329 Y89.502 E.01758
; printing object Button mask.stl id:0 copy 0
;WIPE_START
G1 F8640
G1 X52.523 Y89.086 E-.29191
G1 X53.408 Y88.989 E-.20577
G1 X54.545 Y88.986 E-.26232
;WIPE_END
G1 E-.04 F2100
G1 Z.6 F10800
G1 X119.114 Y113.621
G1 Z.2
G1 E.8 F2100
;TYPE:Perimeter
G1 F1200
G1 X119.259 Y113.27 E.01192
G1 X119.491 Y112.968 E.01192
G1 X119.792 Y112.737 E.01192
G1 X120.144 Y112.591 E.01192
G1 X120.573 Y112.535 E.01357
G1 X123.844 Y112.53 E.10256
G1 X124.349 Y112.5 E.01587
G1 X125.273 Y112.394 E.02916
G1 X126.184 Y112.5 E.02875
G1 X126.681 Y112.53 E.01563
G1 X128.968 Y112.535 E.07171
G1 X129.397 Y112.591 E.01357
G1 X129.749 Y112.737 E.01192
G1 X130.05 Y112.968 E.01192
G1 X130.282 Y113.27 E.01192
G1 X130.427 Y113.621 E.01192
G1 X130.483 Y114.05 E.01355
G1 X130.483 Y116.446 E.07515
G1 X130.427 Y116.875 E.01355
G1 X130.282 Y117.226 E.01192
G1 X130.05 Y117.528 E.01192
G1 X129.749 Y117.759 E.01192
G1 X129.397 Y117.904 E.01192
G1 X128.969 Y117.961 E.01355
G1 X120.572 Y117.961 E.26328
G1 X120.144 Y117.904 E.01355
G1 X119.792 Y117.759 E.01192
G1 X119.491 Y117.528 E.01192
G1 X119.259 Y117.226 E.01192
G1 X119.114 Y116.875 E.01192
G1 X119.058 Y116.446 E.01355
G1 X119.058 Y114.05 E.07515
G1 X119.106 Y113.681 E.01167
;WIPE_START
G1 F8640
G1 X119.259 Y113.27 E-.10122
G1 X119.491 Y112.968 E-.08777
G1 X119.792 Y112.737 E-.08777
G1 X120.144 Y112.591 E-.08777
G1 X120.573 Y112.535 E-.0999
G1 X121.853 Y112.533 E-.29557
;WIPE_END
G1 E-.04 F2100
G1 Z.6 F10800
G1 X129.848 Y92.039
G1 Z.2
G1 E.8 F2100
G1 F1200
G1 X137.858 Y92.039 E.25117
G1 X138.287 Y92.096 E.01355
G1 X138.638 Y92.241 E.01192
G1 X138.94 Y92.472 E.01192
G1 X139.171 Y92.774 E.01192
G1 X139.316 Y93.125 E.01192
G1 X139.373 Y93.554 E.01355
G1 X139.373 Y95.95 E.07515
G1 X139.316 Y96.379 E.01355
G1 X139.171 Y96.73 E.01192
G1 X138.94 Y97.032 E.01192
G1 X138.638 Y97.263 E.01192
G1 X138.287 Y97.409 E.01192
G1 X137.858 Y97.465 E.01357
G1 X135.57 Y97.47 E.07171
G1 X135.073 Y97.5 E.01563
G1 X134.162 Y97.606 E.02875
G1 X133.238 Y97.5 E.02916
G1 X132.733 Y97.47 E.01587
G1 X129.462 Y97.465 E.10256
G1 X129.033 Y97.409 E.01356
G1 X128.682 Y97.263 E.01192
G1 X128.38 Y97.032 E.01192
G1 X128.149 Y96.73 E.01192
G1 X128.003 Y96.379 E.01192
G1 X127.947 Y95.95 E.01355
G1 X127.947 Y93.554 E.07515
G1 X128.003 Y93.125 E.01355
G1 X128.149 Y92.774 E.01192
G1 X128.38 Y92.472 E.01192
G1 X128.682 Y92.241 E.01192
G1 X129.033 Y92.096 E.01192
G1 X129.461 Y92.039 E.01355
G1 X129.788 Y92.039 E.01023
;WIPE_START
G1 F8640
G1 X133.079 Y92.039 E-.76
;WIPE_END
G1 E-.04 F2100
G1 Z.6 F10800
G1 X111.687 Y97.419
G1 Z.2
G1 E.8 F2100
G1 F1200
G1 X111.605 Y97.409 E.00262
G1 X111.253 Y97.263 E.01192
G1 X110.952 Y97.032 E.01192
G1 X110.72 Y96.73 E.01192
G1 X110.575 Y96.379 E.01192
G1 X110.518 Y95.95 E.01355
G1 X110.518 Y93.554 E.07515
G1 X110.575 Y93.125 E.01355
G1 X110.72 Y92.774 E.01192
G1 X110.952 Y92.472 E.01192
G1 X111.253 Y92.241 E.01192
G1 X111.605 Y92.096 E.01192
G1 X112.033 Y92.039 E.01355
G1 X120.43 Y92.039 E.26328
G1 X120.858 Y92.096 E.01355
G1 X121.209 Y92.241 E.01192
G1 X121.511 Y92.472 E.01192
G1 X121.742 Y92.774 E.01192
G1 X121.888 Y93.125 E.01192
G1 X121.944 Y93.554 E.01355
G1 X121.944 Y95.95 E.07515
G1 X121.888 Y96.379 E.01355
G1 X121.742 Y96.73 E.01192
G1 X121.511 Y97.032 E.01192
G1 X121.209 Y97.263 E.01192
G1 X120.858 Y97.409 E.01192
G1 X120.429 Y97.465 E.01357
G1 X118.142 Y97.47 E.07171
G1 X117.644 Y97.5 E.01563
G1 X116.734 Y97.606 E.02875
G1 X115.81 Y97.5 E.02916
G1 X115.304 Y97.47 E.01587
G1 X112.033 Y97.465 E.10256
G1 X111.747 Y97.427 E.00907
;WIPE_START
G1 F8640
G1 X111.605 Y97.409 E-.03311
G1 X111.253 Y97.263 E-.08777
G1 X110.952 Y97.032 E-.08777
G1 X110.72 Y96.73 E-.08777
G1 X110.575 Y96.379 E-.08777
G1 X110.518 Y95.95 E-.09979
G1 X110.518 Y94.755 E-.27601
;WIPE_END
G1 E-.04 F2100
G1 Z.6 F10800
G1 X103.518 Y96.344
G1 Z.2
G1 E.8 F2100
G1 F1200
G1 X103.368 Y96.73 E.01299
G1 X103.137 Y97.032 E.01192
G1 X102.835 Y97.263 E.01192
G1 X102.484 Y97.409 E.01192
G1 X102.055 Y97.465 E.01357
G1 X99.768 Y97.47 E.07171
G1 X99.27 Y97.5 E.01563
M73 Q1 S35
G1 X98.359 Y97.606 E.02875
G1 X97.435 Y97.5 E.02916
G1 X96.93 Y97.47 E.01587
G1 X93.659 Y97.465 E.10256
G1 X93.23 Y97.409 E.01356
G1 X92.879 Y97.263 E.01192
G1 X92.577 Y97.032 E.01192
G1 X92.346 Y96.73 E.01192
G1 X92.201 Y96.379 E.01192
G1 X92.144 Y95.95 E.01355
G1 X92.144 Y93.554 E.07515
G1 X92.201 Y93.125 E.01355
G1 X92.346 Y92.774 E.01192
G1 X92.577 Y92.472 E.01192
G1 X92.879 Y92.241 E.01192
G1 X93.23 Y92.096 E.01192
G1 X93.659 Y92.039 E.01355
G1 X102.076 Y92.042 E.26391
G1 X102.484 Y92.096 E.01291
G1 X102.835 Y92.241 E.01192
G1 X103.137 Y92.472 E.01192
G1 X103.368 Y92.774 E.01192
G1 X103.514 Y93.125 E.01192
G1 X103.57 Y93.554 E.01355
G1 X103.57 Y95.95 E.07515
G1 X103.526 Y96.284 E.01056
;WIPE_START
G1 F8640
G1 X103.368 Y96.73 E-.10916
G1 X103.137 Y97.032 E-.08777
G1 X102.835 Y97.263 E-.08777
G1 X102.484 Y97.409 E-.08777
G1 X102.055 Y97.465 E-.09994
G1 X100.809 Y97.468 E-.28758
;WIPE_END
G1 E-.04 F2100
G1 Z.6 F10800
G1 X102.055 Y112.535
G1 Z.2
G1 E.8 F2100
G1 F1200
G1 X102.484 Y112.591 E.01357
G1 X102.835 Y112.737 E.01192
G1 X103.137 Y112.968 E.01192
G1 X103.368 Y113.27 E.01192
G1 X103.514 Y113.621 E.01192
G1 X103.57 Y114.05 E.01355
G1 X103.57 Y116.446 E.07515
G1 X103.514 Y116.875 E.01355
G1 X103.368 Y117.226 E.01192
G1 X103.137 Y117.528 E.01192
G1 X102.835 Y117.759 E.01192
G1 X102.484 Y117.904 E.01192
G1 X102.056 Y117.961 E.01355
G1 X93.659 Y117.961 E.26328
G1 X93.23 Y117.904 E.01355
G1 X92.879 Y117.759 E.01192
G1 X92.577 Y117.528 E.01192
G1 X92.346 Y117.226 E.01192
G1 X92.201 Y116.875 E.01192
G1 X92.144 Y116.446 E.01355
G1 X92.144 Y114.05 E.07515
G1 X92.201 Y113.621 E.01355
G1 X92.346 Y113.27 E.01192
G1 X92.577 Y112.968 E.01192
G1 X92.879 Y112.737 E.01192
G1 X93.23 Y112.591 E.01192
G1 X93.659 Y112.535 E.01357
G1 X96.93 Y112.53 E.10256
G1 X97.435 Y112.5 E.01587
G1 X98.359 Y112.394 E.02916
G1 X99.27 Y112.5 E.02875
G1 X99.768 Y112.53 E.01563
G1 X101.995 Y112.535 E.06983
;WIPE_START
G1 F8640
G1 X102.484 Y112.591 E-.1137
G1 X102.835 Y112.737 E-.08777
G1 X103.137 Y112.968 E-.08777
G1 X103.368 Y113.27 E-.08777
G1 X103.514 Y113.621 E-.08777
G1 X103.57 Y114.05 E-.09979
G1 X103.57 Y114.896 E-.19543
;WIPE_END
G1 E-.04 F2100
G1 Z.6 F10800
G1 X82.579 Y114.05
G1 Z.2
G1 E.8 F2100
G1 F1200
G1 X82.579 Y116.446 E.07515
G1 X82.522 Y116.875 E.01355
G1 X82.377 Y117.226 E.01192
G1 X82.146 Y117.528 E.01192
G1 X81.844 Y117.759 E.01192
G1 X81.493 Y117.904 E.01192
G1 X81.064 Y117.961 E.01355
G1 X72.668 Y117.961 E.26328
G1 X72.239 Y117.904 E.01355
G1 X71.888 Y117.759 E.01192
G1 X71.586 Y117.528 E.01192
G1 X71.355 Y117.226 E.01192
G1 X71.209 Y116.875 E.01192
G1 X71.153 Y116.446 E.01355
G1 X71.153 Y114.05 E.07515
G1 X71.209 Y113.621 E.01355
G1 X71.355 Y113.27 E.01192
G1 X71.586 Y112.968 E.01192
G1 X71.888 Y112.737 E.01192
G1 X72.239 Y112.591 E.01192
G1 X72.668 Y112.535 E.01357
G1 X75.939 Y112.53 E.10256
G1 X76.444 Y112.5 E.01587
G1 X77.368 Y112.394 E.02916
G1 X78.279 Y112.5 E.02875
G1 X78.777 Y112.53 E.01563
G1 X81.064 Y112.535 E.07171
G1 X81.493 Y112.591 E.01357
G1 X81.844 Y112.737 E.01192
G1 X82.146 Y112.968 E.01192
G1 X82.377 Y113.27 E.01192
G1 X82.522 Y113.621 E.01192
G1 X82.571 Y113.99 E.01167
;WIPE_START
G1 F8640
G1 X82.579 Y116.446 E-.56717
G1 X82.522 Y116.875 E-.09979
G1 X82.377 Y117.226 E-.08777
G1 X82.363 Y117.244 E-.00527
;WIPE_END
G1 E-.04 F2100
G1 Z.6 F10800
G1 X62.945 Y97.146
G1 Z.2
G1 E.8 F2100
G1 F1200
G1 X62.643 Y97.377 E.01192
G1 X62.292 Y97.523 E.01192
G1 X61.863 Y97.579 E.01357
G1 X59.576 Y97.585 E.07171
G1 X59.078 Y97.614 E.01563
G1 X58.168 Y97.72 E.02875
G1 X57.244 Y97.614 E.02916
G1 X56.738 Y97.585 E.01587
G1 X53.467 Y97.579 E.10256
G1 X53.038 Y97.523 E.01356
G1 X52.687 Y97.377 E.01192
G1 X52.386 Y97.146 E.01192
G1 X52.154 Y96.844 E.01192
G1 X52.009 Y96.493 E.01192
G1 X51.952 Y96.065 E.01355
G1 X51.952 Y93.668 E.07515
G1 X52.009 Y93.239 E.01355
G1 X52.154 Y92.888 E.01192
G1 X52.386 Y92.587 E.01192
G1 X52.687 Y92.355 E.01192
G1 X53.038 Y92.21 E.01192
G1 X53.467 Y92.153 E.01355
G1 X61.864 Y92.153 E.26328
G1 X62.292 Y92.21 E.01355
G1 X62.643 Y92.355 E.01192
G1 X62.945 Y92.587 E.01192
G1 X63.176 Y92.888 E.01192
G1 X63.322 Y93.239 E.01192
G1 X63.378 Y93.668 E.01355
G1 X63.378 Y96.065 E.07515
G1 X63.322 Y96.493 E.01355
M73 Q2 S35
G1 X63.176 Y96.844 E.01192
G1 X62.981 Y97.098 E.01004
;WIPE_START
G1 F8640
G1 X62.643 Y97.377 E-.10122
G1 X62.292 Y97.523 E-.08777
G1 X61.863 Y97.579 E-.09994
G1 X59.823 Y97.584 E-.47106
;WIPE_END
G1 E-.04 F2100
G1 Z.6 F10800
G1 X62.981 Y108.896
M73 P2 R35
G1 Z.2
G1 E.8 F2100
G1 F1200
G1 X96.378 Y108.896 E1.04714
G1 X97.403 Y108.863 E.03214
G1 X98.357 Y108.758 E.0301
G1 X99.305 Y108.862 E.02991
G1 X99.832 Y108.891 E.01655
G1 X100.841 Y108.896 E.03164
G1 X114.752 Y108.896 E.43616
G1 X115.777 Y108.863 E.03216
G1 X116.731 Y108.758 E.0301
G1 X117.688 Y108.863 E.03017
G1 X118.715 Y108.896 E.03224
G1 X132.682 Y108.891 E.43791
G1 X133.21 Y108.862 E.01659
G1 X134.16 Y108.758 E.02995
G1 X135.11 Y108.862 E.02997
G1 X135.638 Y108.891 E.0166
G1 X136.651 Y108.896 E.03174
G1 X170.533 Y108.896 E1.06235
G1 X171.561 Y108.863 E.03226
G1 X172.519 Y108.758 E.0302
G1 X173.463 Y108.862 E.0298
G1 X173.988 Y108.891 E.01649
G1 X174.993 Y108.896 E.03151
G1 X208.615 Y108.896 E1.05419
G1 X209.636 Y108.863 E.03203
G1 X210.337 Y108.785 E.02212
G1 X210.341 Y109.434 E.02034
G1 X209.643 Y109.357 E.02204
G1 X209.118 Y109.328 E.01649
G1 X208.113 Y109.322 E.03151
G1 X174.486 Y109.323 E1.05434
G1 X173.465 Y109.356 E.03203
G1 X172.512 Y109.461 E.03007
G1 X171.57 Y109.357 E.0297
G1 X171.047 Y109.328 E.01644
G1 X157.272 Y109.323 E.43192
G1 X156.257 Y109.356 E.03183
G1 X155.308 Y109.461 E.02993
G1 X154.365 Y109.357 E.02977
G1 X153.84 Y109.328 E.01647
G1 X127.237 Y109.323 E.83411
G1 X126.221 Y109.356 E.0319
G1 X125.272 Y109.461 E.02992
G1 X124.32 Y109.357 E.03003
G1 X123.79 Y109.328 E.01665
G1 X100.343 Y109.323 E.73518
G1 X99.314 Y109.356 E.03227
G1 X98.358 Y109.461 E.03016
G1 X97.405 Y109.357 E.03003
G1 X96.874 Y109.328 E.0167
G1 X79.356 Y109.323 E.54926
G1 X78.324 Y109.356 E.03236
G1 X77.364 Y109.461 E.03029
G1 X76.423 Y109.357 E.02969
G1 X75.899 Y109.328 E.01646
G1 X60.131 Y109.323 E.49437
G1 X59.115 Y109.356 E.03188
G1 X58.166 Y109.461 E.02994
G1 X57.219 Y109.357 E.02988
G1 X56.692 Y109.328 E.01655
G1 X42.311 Y109.323 E.45088
G1 X41.289 Y109.356 E.03207
G1 X40.594 Y109.433 E.02193
G1 X40.618 Y108.896 E.01683
G1 X56.189 Y108.896 E.48822
G1 X57.212 Y108.863 E.03208
G1 X58.165 Y108.757 E.03007
G1 X59.12 Y108.863 E.03011
G1 X60.144 Y108.896 E.03214
G1 X62.921 Y108.896 E.08708
;WIPE_START
G1 F8640
G1 X66.213 Y108.896 E-.76
;WIPE_END
G1 E-.04 F2100
G1 Z.6 F10800
G1 X62.292 Y112.591
G1 Z.2
G1 E.8 F2100
G1 F1200
G1 X62.643 Y112.737 E.01192
G1 X62.945 Y112.968 E.01192
G1 X63.176 Y113.27 E.01192
G1 X63.322 Y113.621 E.01192
G1 X63.378 Y114.05 E.01355
G1 X63.378 Y116.446 E.07515
G1 X63.322 Y116.875 E.01355
G1 X63.176 Y117.226 E.01192
G1 X62.945 Y117.528 E.01192
G1 X62.643 Y117.759 E.01192
G1 X62.292 Y117.904 E.01192
G1 X61.864 Y117.961 E.01355
G1 X53.467 Y117.961 E.26328
G1 X53.038 Y117.904 E.01355
G1 X52.687 Y117.759 E.01192
G1 X52.386 Y117.528 E.01192
G1 X52.154 Y117.226 E.01192
G1 X52.009 Y116.875 E.01192
G1 X51.952 Y116.446 E.01355
G1 X51.952 Y114.05 E.07515
G1 X52.009 Y113.621 E.01355
G1 X52.154 Y113.27 E.01192
G1 X52.386 Y112.968 E.01192
G1 X52.687 Y112.737 E.01192
G1 X53.038 Y112.591 E.01192
G1 X53.467 Y112.535 E.01357
G1 X56.738 Y112.53 E.10256
G1 X57.244 Y112.5 E.01587
G1 X58.168 Y112.394 E.02916
G1 X59.078 Y112.5 E.02875
G1 X59.576 Y112.53 E.01563
G1 X61.863 Y112.535 E.07171
G1 X62.233 Y112.584 E.01169
;WIPE_START
G1 F8640
G1 X62.643 Y112.737 E-.10122
G1 X62.945 Y112.968 E-.08777
G1 X63.176 Y113.27 E-.08777
G1 X63.322 Y113.621 E-.08777
G1 X63.378 Y114.05 E-.09979
G1 X63.378 Y115.33 E-.29568
;WIPE_END
G1 E-.04 F2100
G1 Z.6 F10800
G1 X45.549 Y114.05
G1 Z.2
G1 E.8 F2100
G1 F1200
G1 X45.549 Y116.446 E.07515
G1 X45.493 Y116.875 E.01355
G1 X45.347 Y117.226 E.01192
G1 X45.116 Y117.528 E.01192
G1 X44.814 Y117.759 E.01192
G1 X44.463 Y117.904 E.01192
G1 X44.034 Y117.961 E.01355
G1 X35.638 Y117.961 E.26328
G1 X35.209 Y117.904 E.01355
G1 X34.858 Y117.759 E.01192
G1 X34.556 Y117.528 E.01192
G1 X34.325 Y117.226 E.01192
G1 X34.18 Y116.875 E.01192
G1 X34.123 Y116.446 E.01355
G1 X34.123 Y114.05 E.07515
G1 X34.18 Y113.621 E.01355
G1 X34.325 Y113.271 E.01189
G1 X34.561 Y112.965 E.01214
G1 X34.858 Y112.737 E.01172
G1 X35.209 Y112.591 E.01192
G1 X35.638 Y112.535 E.01357
G1 X38.909 Y112.53 E.10256
G1 X39.414 Y112.5 E.01587
G1 X40.338 Y112.394 E.02916
G1 X41.249 Y112.5 E.02875
G1 X41.747 Y112.53 E.01563
G1 X44.034 Y112.535 E.07171
G1 X44.463 Y112.591 E.01357
G1 X44.814 Y112.737 E.01192
G1 X45.116 Y112.968 E.01192
G1 X45.347 Y113.27 E.01192
G1 X45.493 Y113.621 E.01192
G1 X45.541 Y113.99 E.01167
;WIPE_START
G1 F8640
G1 X45.549 Y116.446 E-.56717
G1 X45.493 Y116.875 E-.09979
M73 Q3 S35
G1 X45.347 Y117.226 E-.08777
G1 X45.333 Y117.244 E-.00527
;WIPE_END
G1 E-.04 F2100
G1 Z.6 F10800
G1 X149.095 Y114.05
G1 Z.2
M73 P3 R35
G1 E.8 F2100
G1 F1200
G1 X149.152 Y113.621 E.01355
G1 X149.297 Y113.27 E.01192
G1 X149.528 Y112.968 E.01192
G1 X149.83 Y112.737 E.01192
G1 X150.181 Y112.591 E.01192
G1 X150.61 Y112.535 E.01356
G1 X153.881 Y112.53 E.10256
G1 X154.386 Y112.5 E.01587
G1 X155.31 Y112.394 E.02916
G1 X156.221 Y112.5 E.02875
G1 X156.719 Y112.53 E.01563
