; generated by PrusaSlicer 2.4.0+win64 on 2022-01-12 at 11:19:12 UTC

; 

; external perimeters extrusion width = 0.45mm
; perimeters extrusion width = 0.45mm
; infill extrusion width = 0.45mm
; solid infill extrusion width = 0.45mm
; top infill extrusion width = 0.40mm
; first layer extrusion width = 0.42mm

M73 P0 R147
M73 C41
M73 Q0 S149
M73 D42
M201 X1000 Y1000 Z200 E5000 ; sets maximum accelerations, mm/sec^2
M203 X200 Y200 Z12 E120 ; sets maximum feedrates, mm/sec
M204 P1250 R1250 T1250 ; sets acceleration (P, T) and retract acceleration (R), mm/sec^2
M205 X8.00 Y8.00 Z0.40 E4.50 ; sets the jerk limits, mm/sec
M205 S0 T0 ; sets the minimum extruding and travel feed rate, mm/sec
M107
;TYPE:Custom
M862.3 P "MK3S" ; printer model check
M862.1 P0.4 ; nozzle diameter check
M115 U3.10.1 ; tell printer latest fw version
G90 ; use absolute coordinates
M83 ; extruder relative mode
M104 S215 ; set extruder temp
M140 S60 ; set bed temp
M190 S60 ; wait for bed temp
M109 S215 ; wait for extruder temp
G28 W ; home all without mesh bed level
G80 ; mesh bed leveling
G1 Z0.2 F720
G1 Y-3 F1000 ; go outside print area
G92 E0
G1 X60 E9 F1000 ; intro line
G1 X100 E12.5 F1000 ; intro line
G92 E0
M221 S95

; Don't change E values below. Excessive value can damage the printer.

M907 E538 ; set extruder motor current
G21 ; set units to millimeters
G90 ; use absolute coordinates
M83 ; use relative distances for extrusion
M900 K0.05 ; Filament gcode LA 1.5
M900 K30 ; Filament gcode LA 1.0
M107
;LAYER_CHANGE
;Z:0.2
;HEIGHT:0.2
;BEFORE_LAYER_CHANGE
G92 E0.0
;0.2


G1 E-.8 F2100
G1 Z.4 F10800
;AFTER_LAYER_CHANGE
;0.2
G1 X12.654 Y81.78
G1 Z.2
G1 E.8 F2100
M204 S1000
;TYPE:Skirt/Brim
;WIDTH:0.42
G1 F1200
G1 X14 Y81.623 E.04247
G1 X236.31 Y81.643 E6.97038
G1 X237.346 Y81.78 E.03274
G1 X237.945 Y81.94 E.01946
G1 X238.91 Y82.34 E.03274
G1 X239.447 Y82.65 E.01945
G1 X240.276 Y83.286 E.03274
G1 X240.714 Y83.725 E.01946
G1 X241.35 Y84.553 E.03274
G1 X241.66 Y85.09 E.01945
G1 X242.06 Y86.055 E.03274
G1 X242.22 Y86.654 E.01946
G1 X242.377 Y88 E.04247
G1 X242.357 Y122.31 E1.07577
G1 X242.22 Y123.346 E.03274
M73 Q0 S148
M73 D41
G1 X242.052 Y123.964 E.02011
G1 X241.66 Y124.91 E.03209
G1 X241.35 Y125.447 E.01945
G1 X240.714 Y126.275 E.03274
G1 X240.276 Y126.714 E.01946
G1 X239.447 Y127.35 E.03274
G1 X238.91 Y127.66 E.01946
G1 X237.945 Y128.06 E.03274
G1 X237.346 Y128.22 E.01946
G1 X236 Y128.377 E.04247
G1 X14 Y128.377 E6.96065
G1 X12.654 Y128.22 E.04247
G1 X12.055 Y128.06 E.01946
G1 X11.09 Y127.66 E.03274
G1 X10.553 Y127.35 E.01945
G1 X9.724 Y126.714 E.03274
G1 X9.286 Y126.276 E.01946
G1 X8.65 Y125.447 E.03274
G1 X8.34 Y124.91 E.01946
G1 X7.94 Y123.945 E.03274
G1 X7.78 Y123.346 E.01946
G1 X7.623 Y122 E.04247
G1 X7.643 Y87.69 E1.07577
G1 X7.78 Y86.654 E.03274
G1 X7.94 Y86.055 E.01946
G1 X8.34 Y85.09 E.03274
G1 X8.65 Y84.553 E.01946
G1 X9.286 Y83.725 E.03274
G1 X9.724 Y83.286 E.01946
G1 X10.553 Y82.65 E.03274
G1 X11.09 Y82.34 E.01946
G1 X12.055 Y81.94 E.03274
G1 X12.596 Y81.795 E.01758
; printing object End Cap.stl id:0 copy 0
;WIPE_START
G1 F8640
G1 X14 Y81.623 E-.3265
G1 X15.877 Y81.623 E-.4335
;WIPE_END
G1 E-.04 F2100
G1 Z.6 F10800
G1 X144.95 Y120.658
G1 Z.2
G1 E.8 F2100
;TYPE:Perimeter
G1 F1200
G1 X144.989 Y121.275 E.01939
G1 X144.325 Y121.19 E.02098
G1 X143.556 Y121.157 E.02414
G1 X143.551 Y119.672 E.04656
G1 X144.944 Y119.667 E.04368
G1 X144.949 Y120.598 E.02919
;WIPE_START
G1 F8640
G1 X144.989 Y121.275 E-.1566
G1 X144.325 Y121.19 E-.15453
G1 X143.556 Y121.157 E-.17775
G1 X143.552 Y119.983 E-.27113
;WIPE_END
G1 E-.04 F2100
G1 Z.6 F10800
G1 X179.576 Y120.669
G1 Z.2
G1 E.8 F2100
G1 F1200
G1 X179.632 Y120.721 E.0024
G1 X179.405 Y120.837 E.00799
G1 X179.496 Y120.515 E.01048
G1 X179.548 Y120.616 E.00356
;WIPE_START
G1 F8640
G1 X179.632 Y120.721 E-.03102
G1 X179.405 Y120.837 E-.05881
G1 X179.496 Y120.515 E-.0772
G1 X179.548 Y120.616 E-.02618
;WIPE_END
G1 E-.60679 F2100
G1 Z.6 F10800
G1 X115.449 Y109.564
G1 Z.2
G1 E.8 F2100
G1 F1200
G1 X115.544 Y109.334 E.00779
G1 X115.909 Y108.859 E.01878
G1 X116.384 Y108.494 E.01878
G1 X116.937 Y108.265 E.01878
G1 X117.479 Y108.194 E.01714
G1 X126.082 Y108.194 E.26975
G1 X126.625 Y108.265 E.01714
G1 X127.178 Y108.494 E.01878
G1 X127.653 Y108.859 E.01878
G1 X128.017 Y109.334 E.01878
G1 X128.247 Y109.887 E.01878
G1 X128.318 Y110.429 E.01714
G1 X128.318 Y113.033 E.08162
G1 X128.247 Y113.575 E.01714
G1 X128.017 Y114.128 E.01878
G1 X127.653 Y114.603 E.01878
G1 X127.178 Y114.968 E.01878
G1 X126.625 Y115.197 E.01878
G1 X126.082 Y115.268 E.01714
G1 X117.479 Y115.268 E.26975
G1 X116.937 Y115.197 E.01714
G1 X116.384 Y114.968 E.01878
G1 X115.909 Y114.603 E.01878
G1 X115.544 Y114.128 E.01878
G1 X115.315 Y113.575 E.01878
G1 X115.244 Y113.033 E.01714
G1 X115.244 Y110.429 E.08162
G1 X115.315 Y109.887 E.01714
G1 X115.426 Y109.619 E.0091
G1 X115.683 Y109.986 F10800
;TYPE:External perimeter
G1 F1200
G1 X115.874 Y109.524 E.01566
G1 X116.178 Y109.128 E.01566
G1 X116.574 Y108.824 E.01566
G1 X117.036 Y108.633 E.01566
G1 X117.504 Y108.571 E.01481
G1 X126.058 Y108.571 E.2682
G1 X126.526 Y108.633 E.01481
G1 X126.988 Y108.824 E.01566
G1 X127.384 Y109.128 E.01566
G1 X127.688 Y109.524 E.01566
G1 X127.879 Y109.986 E.01566
G1 X127.941 Y110.454 E.01481
G1 X127.941 Y113.008 E.08007
G1 X127.879 Y113.476 E.01481
G1 X127.688 Y113.938 E.01566
G1 X127.384 Y114.334 E.01566
G1 X126.988 Y114.638 E.01566
G1 X126.526 Y114.829 E.01566
G1 X126.058 Y114.891 E.01481
G1 X117.504 Y114.891 E.2682
G1 X117.036 Y114.829 E.01481
G1 X116.574 Y114.638 E.01566
G1 X116.178 Y114.334 E.01566
G1 X115.874 Y113.938 E.01566
G1 X115.683 Y113.476 E.01566
G1 X115.621 Y113.008 E.01481
G1 X115.621 Y110.454 E.08007
G1 X115.675 Y110.045 E.01293
G1 X115.402 Y109.701 F10800
;WIPE_START
G1 F8640
G1 X115.874 Y109.524 E-.12877
G1 X116.178 Y109.128 E-.11534
G1 X116.574 Y108.824 E-.11534
G1 X117.036 Y108.633 E-.11534
G1 X117.504 Y108.571 E-.10909
G1 X118.267 Y108.571 E-.17611
;WIPE_END
G1 E-.04 F2100
G1 Z.6 F10800
G1 X110.864 Y110.235
G1 Z.2
G1 E.8 F2100
;TYPE:Perimeter
G1 F1200
G1 X110.889 Y110.429 E.00616
G1 X110.889 Y113.033 E.08162
G1 X110.818 Y113.575 E.01714
G1 X110.589 Y114.128 E.01878
G1 X110.224 Y114.603 E.01878
G1 X109.749 Y114.968 E.01878
G1 X109.196 Y115.197 E.01878
G1 X108.654 Y115.268 E.01714
G1 X100.051 Y115.268 E.26975
G1 X99.509 Y115.197 E.01714
G1 X98.955 Y114.968 E.01878
G1 X98.48 Y114.603 E.01878
G1 X98.116 Y114.128 E.01878
G1 X97.887 Y113.575 E.01878
G1 X97.815 Y113.033 E.01714
G1 X97.815 Y110.429 E.08162
G1 X97.887 Y109.887 E.01714
G1 X98.116 Y109.334 E.01878
G1 X98.48 Y108.859 E.01878
G1 X98.955 Y108.494 E.01878
G1 X99.509 Y108.265 E.01878
G1 X100.051 Y108.194 E.01714
G1 X108.654 Y108.194 E.26975
G1 X109.196 Y108.265 E.01714
G1 X109.749 Y108.494 E.01878
G1 X110.224 Y108.859 E.01878
G1 X110.589 Y109.334 E.01878
G1 X110.818 Y109.887 E.01878
G1 X110.856 Y110.175 E.0091
G1 X110.451 Y109.986 F10800
;TYPE:External perimeter
G1 F1200
G1 X110.512 Y110.454 E.01481
G1 X110.512 Y113.008 E.08007
G1 X110.451 Y113.476 E.01481
G1 X110.26 Y113.938 E.01566
G1 X109.955 Y114.334 E.01566
G1 X109.559 Y114.638 E.01566
G1 X109.098 Y114.829 E.01566
G1 X108.629 Y114.891 E.01481
G1 X100.075 Y114.891 E.2682
G1 X99.607 Y114.829 E.01481
G1 X99.146 Y114.638 E.01566
G1 X98.749 Y114.334 E.01566
G1 X98.445 Y113.938 E.01566
G1 X98.254 Y113.476 E.01566
G1 X98.192 Y113.008 E.01481
G1 X98.192 Y110.454 E.08007
G1 X98.254 Y109.986 E.01481
G1 X98.445 Y109.524 E.01566
G1 X98.749 Y109.128 E.01566
G1 X99.146 Y108.824 E.01566
G1 X99.607 Y108.633 E.01566
G1 X100.075 Y108.571 E.01481
G1 X108.629 Y108.571 E.2682
G1 X109.098 Y108.633 E.01481
G1 X109.559 Y108.824 E.01566
G1 X109.955 Y109.128 E.01566
G1 X110.26 Y109.524 E.01566
G1 X110.428 Y109.93 E.01378
G1 X110.837 Y110.089 F10800
;WIPE_START
G1 F8640
G1 X110.512 Y110.454 E-.12252
G1 X110.512 Y113.008 E-.58967
G1 X110.485 Y113.213 E-.04781
;WIPE_END
G1 E-.04 F2100
G1 Z.6 F10800
G1 X92.49 Y110.235
G1 Z.2
G1 E.8 F2100
;TYPE:Perimeter
G1 F1200
G1 X92.515 Y110.429 E.00616
G1 X92.515 Y113.033 E.08162
G1 X92.444 Y113.575 E.01714
G1 X92.215 Y114.128 E.01878
G1 X91.85 Y114.603 E.01878
G1 X91.375 Y114.968 E.01878
G1 X90.822 Y115.197 E.01878
G1 X90.28 Y115.268 E.01714
G1 X81.677 Y115.268 E.26975
G1 X81.134 Y115.197 E.01714
G1 X80.581 Y114.968 E.01878
G1 X80.106 Y114.603 E.01878
G1 X79.742 Y114.128 E.01878
G1 X79.512 Y113.575 E.01878
G1 X79.441 Y113.033 E.01714
G1 X79.441 Y110.429 E.08162
G1 X79.512 Y109.887 E.01714
G1 X79.742 Y109.334 E.01878
G1 X80.106 Y108.859 E.01878
G1 X80.581 Y108.494 E.01878
G1 X81.134 Y108.265 E.01878
G1 X81.677 Y108.194 E.01714
G1 X90.28 Y108.194 E.26975
G1 X90.822 Y108.265 E.01714
G1 X91.375 Y108.494 E.01878
G1 X91.85 Y108.859 E.01878
G1 X92.215 Y109.334 E.01878
G1 X92.444 Y109.887 E.01878
G1 X92.482 Y110.175 E.0091
G1 X92.076 Y109.986 F10800
;TYPE:External perimeter
G1 F1200
G1 X92.138 Y110.454 E.01481
G1 X92.138 Y113.008 E.08007
G1 X92.076 Y113.476 E.01481
G1 X91.885 Y113.938 E.01566
G1 X91.581 Y114.334 E.01566
G1 X91.185 Y114.638 E.01566
G1 X90.723 Y114.829 E.01566
G1 X90.255 Y114.891 E.01481
G1 X81.701 Y114.891 E.2682
G1 X81.233 Y114.829 E.01481
G1 X80.771 Y114.638 E.01566
G1 X80.375 Y114.334 E.01566
G1 X80.071 Y113.938 E.01566
G1 X79.88 Y113.476 E.01566
G1 X79.818 Y113.008 E.01481
G1 X79.818 Y110.454 E.08007
G1 X79.88 Y109.986 E.01481
G1 X80.071 Y109.524 E.01566
G1 X80.375 Y109.128 E.01566
G1 X80.771 Y108.824 E.01566
G1 X81.233 Y108.633 E.01566
G1 X81.701 Y108.571 E.01481
G1 X90.255 Y108.571 E.2682
G1 X90.723 Y108.633 E.01481
G1 X91.185 Y108.824 E.01566
G1 X91.581 Y109.128 E.01566
G1 X91.885 Y109.524 E.01566
G1 X92.053 Y109.93 E.01378
G1 X92.463 Y110.089 F10800
;WIPE_START
G1 F8640
G1 X92.138 Y110.454 E-.12252
G1 X92.138 Y113.008 E-.58967
G1 X92.111 Y113.213 E-.04781
;WIPE_END
G1 E-.04 F2100
G1 Z.6 F10800
G1 X71.39 Y118.729
G1 Z.2
G1 E.8 F2100
;TYPE:Perimeter
G1 F1200
G1 X71.375 Y119.729 E.03137
G1 X70.985 Y119.932 E.01379
G1 X71.128 Y120.048 E.0058
G1 X71.334 Y120.34 E.01118
G1 X71.48 Y120.644 E.01059
G1 X71.546 Y120.963 E.01021
G1 X71.569 Y121.267 E.00956
G1 X71.522 Y121.671 E.01274
G1 X71.385 Y122.058 E.01288
G1 X71.165 Y122.416 E.01318
G1 X70.87 Y122.716 E.0132
G1 X70.505 Y122.957 E.0137
G1 X70.113 Y123.126 E.0134
G1 X69.636 Y123.234 E.01533
G1 X69.165 Y123.258 E.01479
G1 X68.647 Y123.204 E.01633
G1 X68.112 Y123.027 E.01766
G1 X67.842 Y122.851 E.01011
G1 X67.157 Y123.116 E.02303
G1 X66.354 Y123.208 E.02534
G1 X65.36 Y122.08 E.04717
G1 X65.299 Y123.204 E.03532
G1 X64.168 Y123.128 E.03553
G1 X63.458 Y122.788 E.02468
G1 X63.021 Y123.057 E.01612
G1 X62.649 Y123.195 E.01244
G1 X62.225 Y123.273 E.01351
G1 X61.684 Y123.278 E.01698
G1 X61.175 Y123.202 E.01611
G1 X60.892 Y123.125 E.00919
G1 X60.403 Y122.897 E.01693
G1 X59.971 Y122.558 E.01723
G1 X59.62 Y122.115 E.01773
G1 X59.49 Y121.87 E.00868
G1 X59.38 Y121.619 E.00859
G1 X59.229 Y121.025 E.0192
G1 X59.197 Y120.716 E.00976
G1 X59.195 Y120.17 E.01711
G1 X59.225 Y119.869 E.00948
G1 X59.366 Y119.293 E.01861
G1 X59.6 Y118.792 E.01734
G1 X59.945 Y118.344 E.01772
G1 X60.368 Y117.998 E.01713
G1 X60.847 Y117.756 E.01683
G1 X61.389 Y117.61 E.0176
G1 X61.934 Y117.566 E.01714
G1 X62.363 Y117.596 E.0135
G1 X62.814 Y117.702 E.01452
G1 X63.303 Y117.944 E.0171
G1 X63.51 Y118.121 E.00856
G1 X63.864 Y117.727 E.01661
G1 X64.792 Y117.637 E.02923
G1 X65.511 Y117.637 E.02253
G1 X65.915 Y117.686 E.01277
G1 X66.272 Y117.787 E.01161
G1 X66.611 Y117.957 E.01189
G1 X66.968 Y118.253 E.01455
G1 X67.194 Y118.571 E.01223
G1 X67.258 Y118.461 E.00401
G1 X67.639 Y118.035 E.01792
G1 X68.034 Y117.805 E.01433
G1 X68.422 Y117.643 E.01317
G1 X68.877 Y117.563 E.01451
G1 X69.435 Y117.546 E.01749
G1 X69.92 Y117.594 E.01529
G1 X70.532 Y117.737 E.01969
G1 X71.399 Y118.064 E.02905
G1 X71.391 Y118.669 E.01897
G1 X71.018 Y118.323 F10800
;TYPE:External perimeter
G1 F1200
G1 X71.001 Y119.498 E.03685
G1 X70.585 Y119.714 E.0147
G1 X70.098 Y119.404 E.0181
G1 X69.985 Y119.355 E.00386
G1 X69.687 Y119.259 E.00984
G1 X69.366 Y119.206 E.0102
G1 X69.216 Y119.199 E.00469
G1 X68.956 Y119.227 E.0082
G1 X68.752 Y119.314 E.00696
G1 X68.695 Y119.367 E.00246
G1 X68.68 Y119.441 E.00236
G1 X68.707 Y119.539 E.00318
G1 X68.776 Y119.582 E.00256
G1 X68.947 Y119.634 E.00559
G1 X69.988 Y119.841 E.03329
G1 X70.415 Y120.009 E.01439
G1 X70.633 Y120.132 E.00784
G1 X70.85 Y120.308 E.00877
G1 X71.008 Y120.531 E.00856
G1 X71.12 Y120.766 E.00815
G1 X71.172 Y121.015 E.00799
G1 X71.19 Y121.259 E.00767
G1 X71.152 Y121.585 E.01028
G1 X71.043 Y121.894 E.01029
G1 X70.866 Y122.182 E.01059
G1 X70.629 Y122.423 E.01061
G1 X70.325 Y122.624 E.01141
G1 X69.995 Y122.766 E.01126
G1 X69.584 Y122.859 E.01321
G1 X69.175 Y122.88 E.01286
G1 X68.727 Y122.833 E.01413
G1 X68.283 Y122.687 E.01464
G1 X68.104 Y122.561 E.00687
G1 X67.958 Y122.486 E.00514
G1 X67.577 Y122.338 E.0128
G1 X67.714 Y122.496 E.00655
G1 X67.066 Y122.747 E.02179
G1 X66.503 Y122.812 E.01776
G1 X66.092 Y122.359 E.01916
G1 X65.137 Y121.235 E.04626
G1 X64.987 Y121.236 E.0047
G1 X64.985 Y122.025 E.02475
G1 X64.943 Y122.802 E.02442
G1 X64.264 Y122.757 E.02135
G1 X63.836 Y122.557 E.0148
G1 X63.837 Y121.431 E.03531
G1 X63.718 Y120.42 E.03192
G1 X63.83 Y119.408 E.03193
G1 X63.824 Y118.336 E.0336
G1 X64.047 Y118.088 E.01047
G1 X64.81 Y118.014 E.02405
G1 X65.488 Y118.014 E.02124
G1 X65.841 Y118.057 E.01115
G1 X66.135 Y118.14 E.00957
G1 X66.413 Y118.28 E.00975
G1 X66.684 Y118.504 E.01102
G1 X66.886 Y118.79 E.01099
G1 X66.995 Y119.16 E.01211
G1 X66.999 Y119.717 E.01744
G1 X66.98 Y119.966 E.00785
G1 X66.899 Y120.214 E.00818
G1 X66.776 Y120.452 E.00838
G1 X66.609 Y120.649 E.00812
G1 X66.467 Y120.777 E.00598
G1 X66.746 Y121.14 E.01436
G1 X67.228 Y121.935 E.02916
G1 X67.488 Y122.235 E.01243
G1 X67.487 Y121.824 E.01289
G1 X67.435 Y121.322 E.01582
G1 X67.674 Y121.2 E.00841
G1 X68.048 Y121.296 E.0121
G1 X68.216 Y121.385 E.00596
G1 X68.553 Y121.495 E.01113
G1 X68.874 Y121.574 E.01037
G1 X69.185 Y121.604 E.00977
G1 X69.492 Y121.575 E.00967
M73 P0 R146
G1 X69.616 Y121.533 E.0041
G1 X69.721 Y121.483 E.00367
G1 X69.79 Y121.418 E.00296
G1 X69.812 Y121.316 E.0033
G1 X69.789 Y121.225 E.00293
G1 X69.585 Y121.141 E.00691
G1 X68.672 Y120.971 E.02911
G1 X68.422 Y120.907 E.00812
G1 X68.159 Y120.809 E.0088
G1 X67.914 Y120.66 E.00898
G1 X67.676 Y120.461 E.00973
G1 X67.519 Y120.221 E.00899
G1 X67.41 Y119.965 E.00871
G1 X67.375 Y119.477 E.01534
G1 X67.39 Y119.178 E.00941
G1 X67.465 Y118.854 E.01042
G1 X67.564 Y118.684 E.00617
G1 X67.881 Y118.331 E.01487
G1 X68.202 Y118.143 E.01168
G1 X68.528 Y118.007 E.01107
G1 X68.916 Y117.939 E.01234
G1 X69.422 Y117.924 E.01587
G1 X69.858 Y117.967 E.01375
G1 X70.422 Y118.099 E.01815
G1 X70.962 Y118.302 E.01809
G1 X71.416 Y118.367 F10800
;WIPE_START
G1 F8640
G1 X71.001 Y119.498 E-.27635
G1 X70.585 Y119.714 E-.10824
G1 X70.098 Y119.404 E-.13329
G1 X69.985 Y119.355 E-.02841
G1 X69.687 Y119.259 E-.07244
G1 X69.366 Y119.206 E-.07513
G1 X69.216 Y119.199 E-.03456
G1 X69.08 Y119.214 E-.03158
;WIPE_END
G1 E-.04 F2100
G1 Z.6 F10800
G1 X63.495 Y118.604
G1 Z.2
G1 E.8 F2100
G1 F1200
G1 X63.499 Y119.607 E.03146
G1 X62.946 Y119.525 E.01753
G1 X62.783 Y119.425 E.006
G1 X62.459 Y119.311 E.01075
G1 X62.181 Y119.242 E.009
G1 X61.895 Y119.219 E.00898
G1 X61.69 Y119.236 E.00645
G1 X61.505 Y119.289 E.00605
G1 X61.285 Y119.427 E.00814
G1 X61.104 Y119.655 E.00913
G1 X61.02 Y119.851 E.00667
G1 X60.956 Y120.133 E.00906
G1 X60.938 Y120.433 E.00944
G1 X60.96 Y120.742 E.0097
G1 X60.99 Y120.881 E.00448
G1 X61.029 Y121.017 E.00444
G1 X61.12 Y121.21 E.00669
G1 X61.24 Y121.371 E.00629
G1 X61.371 Y121.482 E.00538
G1 X61.528 Y121.562 E.00551
G1 X61.712 Y121.612 E.006
G1 X61.913 Y121.629 E.00632
G1 X62.203 Y121.603 E.00912
G1 X62.799 Y121.425 E.01952
G1 X62.957 Y121.319 E.00596
G1 X63.504 Y121.231 E.01737
G1 X63.508 Y122.246 E.03183
G1 X63.37 Y122.334 E.00514
G1 X63.204 Y122.509 E.00755
G1 X62.857 Y122.716 E.01266
G1 X62.548 Y122.831 E.01032
G1 X62.189 Y122.896 E.01145
G1 X61.71 Y122.901 E.01503
G1 X61.253 Y122.832 E.01449
G1 X61.015 Y122.768 E.00773
G1 X60.804 Y122.68 E.00715
G1 X60.601 Y122.575 E.00718
G1 X60.415 Y122.441 E.00718
