; generated by PrusaSlicer 2.4.0+win64 on 2022-01-10 at 23:30:28 UTC

; 

; external perimeters extrusion width = 0.45mm
; perimeters extrusion width = 0.45mm
; infill extrusion width = 0.45mm
; solid infill extrusion width = 0.45mm
; top infill extrusion width = 0.40mm
; first layer extrusion width = 0.42mm

M73 P0 R114
M73 Q0 S116
M201 X1000 Y1000 Z200 E5000 ; sets maximum accelerations, mm/sec^2
M203 X200 Y200 Z12 E120 ; sets maximum feedrates, mm/sec
M204 P1250 R1250 T1250 ; sets acceleration (P, T) and retract acceleration (R), mm/sec^2
M205 X8.00 Y8.00 Z0.40 E4.50 ; sets the jerk limits, mm/sec
M205 S0 T0 ; sets the minimum extruding and travel feed rate, mm/sec
M107
;TYPE:Custom
M862.3 P "MK3S" ; printer model check
M862.1 P0.4 ; nozzle diameter check
M115 U3.10.1 ; tell printer latest fw version
G90 ; use absolute coordinates
M83 ; extruder relative mode
M104 S215 ; set extruder temp
M140 S60 ; set bed temp
M190 S60 ; wait for bed temp
M109 S215 ; wait for extruder temp
G28 W ; home all without mesh bed level
G80 ; mesh bed leveling
G1 Z0.2 F720
G1 Y-3 F1000 ; go outside print area
G92 E0
G1 X60 E9 F1000 ; intro line
G1 X100 E12.5 F1000 ; intro line
G92 E0
M221 S95

; Don't change E values below. Excessive value can damage the printer.

M907 E538 ; set extruder motor current
G21 ; set units to millimeters
G90 ; use absolute coordinates
M83 ; use relative distances for extrusion
M900 K0.05 ; Filament gcode LA 1.5
M900 K30 ; Filament gcode LA 1.0
M107
;LAYER_CHANGE
;Z:0.2
;HEIGHT:0.2
;BEFORE_LAYER_CHANGE
G92 E0.0
;0.2


G1 E-.8 F2100
G1 Z.4 F10800
;AFTER_LAYER_CHANGE
;0.2
G1 X13.172 Y83.711
G1 Z.2
G1 E.8 F2100
M204 S1000
;TYPE:Skirt/Brim
;WIDTH:0.42
G1 F1200
G1 X14 Y83.623 E.02611
G1 X236.31 Y83.643 E6.97038
G1 X236.828 Y83.711 E.01637
G1 X237.91 Y84.072 E.03575
G1 X238.447 Y84.382 E.01946
G1 X239.3 Y85.139 E.03575
G1 X239.928 Y86.09 E.03575
G1 X240.128 Y86.573 E.01637
G1 X240.289 Y87.172 E.01946
G1 X240.377 Y88 E.02611
G1 X240.357 Y122.31 E1.07577
G1 X240.128 Y123.427 E.03575
G1 X239.618 Y124.447 E.03575
G1 X239.3 Y124.861 E.01637
G1 X238.447 Y125.618 E.03575
G1 X237.91 Y125.928 E.01946
G1 X236.828 Y126.289 E.03575
G1 X236 Y126.377 E.02611
G1 X14 Y126.377 E6.96065
G1 X13.172 Y126.289 E.02611
M73 Q0 S115
G1 X12.573 Y126.128 E.01946
G1 X11.553 Y125.618 E.03575
G1 X11.139 Y125.3 E.01637
G1 X10.7 Y124.861 E.01946
G1 X10.072 Y123.91 E.03575
G1 X9.711 Y122.828 E.03575
G1 X9.623 Y122 E.02611
G1 X9.643 Y87.69 E1.07577
G1 X9.872 Y86.573 E.03575
G1 X10.382 Y85.553 E.03575
G1 X10.7 Y85.139 E.01637
G1 X11.139 Y84.7 E.01946
G1 X12.09 Y84.072 E.03575
G1 X13.115 Y83.73 E.03387
; printing object Switch Mounting Board.stl id:0 copy 0
;WIPE_START
G1 F8640
G1 X14 Y83.623 E-.20581
G1 X16.4 Y83.623 E-.55419
;WIPE_END
G1 E-.04 F2100
G1 Z.6 F10800
G1 X114.712 Y115.973
G1 Z.2
G1 E.8 F2100
;TYPE:External perimeter
G1 F1200
G1 X114.903 Y115.511 E.01566
G1 X115.207 Y115.115 E.01566
G1 X115.604 Y114.811 E.01566
G1 X116.065 Y114.619 E.01566
G1 X116.505 Y114.561 E.01393
G1 X117.053 Y114.618 E.01726
G1 X117.517 Y114.811 E.01575
G1 X117.913 Y115.115 E.01566
G1 X118.218 Y115.511 E.01566
G1 X118.409 Y115.973 E.01566
G1 X118.474 Y116.468 E.01566
G1 X118.409 Y116.963 E.01566
G1 X118.218 Y117.425 E.01566
G1 X117.913 Y117.821 E.01566
G1 X117.517 Y118.125 E.01566
G1 X117.056 Y118.316 E.01566
G1 X116.56 Y118.381 E.01566
G1 X116.065 Y118.316 E.01566
G1 X115.604 Y118.125 E.01566
G1 X115.207 Y117.821 E.01566
G1 X114.903 Y117.425 E.01566
G1 X114.712 Y116.963 E.01566
G1 X114.647 Y116.468 E.01566
G1 X114.704 Y116.032 E.01378
G1 X114.429 Y115.69 F10800
;WIPE_START
G1 F8640
G1 X114.903 Y115.511 E-.12877
G1 X115.207 Y115.115 E-.11534
G1 X115.604 Y114.811 E-.11534
G1 X116.065 Y114.619 E-.11534
G1 X116.505 Y114.561 E-.10256
G1 X117.053 Y114.618 E-.12708
G1 X117.275 Y114.71 E-.05555
;WIPE_END
G1 E-.04 F2100
G1 Z.6 F10800
G1 X116.065 Y119.136
G1 Z.2
G1 E.8 F2100
G1 F1200
G1 X116.505 Y119.078 E.01393
G1 X117.053 Y119.135 E.01726
G1 X117.517 Y119.327 E.01575
G1 X117.913 Y119.631 E.01566
G1 X118.218 Y120.027 E.01566
G1 X118.409 Y120.489 E.01566
G1 X118.474 Y120.984 E.01566
G1 X118.409 Y121.479 E.01566
G1 X118.218 Y121.941 E.01566
G1 X117.913 Y122.337 E.01566
G1 X117.517 Y122.641 E.01566
G1 X117.056 Y122.832 E.01566
G1 X116.56 Y122.898 E.01566
G1 X116.065 Y122.832 E.01566
G1 X115.604 Y122.641 E.01566
G1 X115.207 Y122.337 E.01566
G1 X114.903 Y121.941 E.01566
G1 X114.712 Y121.479 E.01566
G1 X114.647 Y120.984 E.01566
G1 X114.712 Y120.489 E.01566
G1 X114.903 Y120.027 E.01566
G1 X115.207 Y119.631 E.01566
G1 X115.604 Y119.327 E.01566
G1 X116.01 Y119.159 E.01378
G1 X116.169 Y118.749 F10800
;WIPE_START
G1 F8640
G1 X116.505 Y119.078 E-.116
G1 X117.053 Y119.135 E-.12709
G1 X117.517 Y119.327 E-.11602
G1 X117.913 Y119.631 E-.11535
G1 X118.218 Y120.027 E-.11534
G1 X118.409 Y120.489 E-.11534
G1 X118.44 Y120.724 E-.05486
;WIPE_END
G1 E-.04 F2100
G1 Z.6 F10800
G1 X111.158 Y120.489
G1 Z.2
G1 E.8 F2100
G1 F1200
G1 X111.224 Y120.984 E.01566
G1 X111.158 Y121.479 E.01566
G1 X110.967 Y121.941 E.01566
G1 X110.663 Y122.337 E.01566
G1 X110.267 Y122.641 E.01566
G1 X109.856 Y122.811 E.01393
G1 X109.313 Y122.898 E.01726
G1 X108.815 Y122.832 E.01575
G1 X108.353 Y122.641 E.01566
G1 X107.957 Y122.337 E.01566
G1 X107.653 Y121.941 E.01566
G1 X107.462 Y121.479 E.01566
G1 X107.397 Y120.984 E.01566
G1 X107.462 Y120.489 E.01566
G1 X107.653 Y120.027 E.01566
G1 X107.957 Y119.631 E.01566
G1 X108.353 Y119.327 E.01566
G1 X108.815 Y119.136 E.01566
G1 X109.255 Y119.078 E.01393
G1 X109.803 Y119.135 E.01726
G1 X110.267 Y119.327 E.01575
G1 X110.663 Y119.631 E.01566
G1 X110.967 Y120.027 E.01566
G1 X111.135 Y120.433 E.01378
G1 X111.545 Y120.592 F10800
;WIPE_START
G1 F8640
G1 X111.224 Y120.984 E-.12878
G1 X111.158 Y121.479 E-.11535
G1 X110.967 Y121.941 E-.11534
G1 X110.663 Y122.337 E-.11534
G1 X110.267 Y122.641 E-.11534
G1 X109.856 Y122.811 E-.10256
G1 X109.569 Y122.857 E-.06729
;WIPE_END
G1 E-.04 F2100
G1 Z.6 F10800
G1 X110.267 Y118.125
G1 Z.2
G1 E.8 F2100
G1 F1200
G1 X109.805 Y118.316 E.01566
G1 X109.31 Y118.381 E.01566
G1 X108.815 Y118.316 E.01566
G1 X108.353 Y118.125 E.01566
G1 X107.957 Y117.821 E.01566
G1 X107.653 Y117.425 E.01566
G1 X107.462 Y116.963 E.01566
G1 X107.397 Y116.468 E.01566
G1 X107.462 Y115.973 E.01566
G1 X107.653 Y115.511 E.01566
G1 X107.957 Y115.115 E.01566
G1 X108.353 Y114.811 E.01566
G1 X108.815 Y114.619 E.01566
G1 X109.255 Y114.561 E.01393
G1 X109.803 Y114.618 E.01726
G1 X110.267 Y114.811 E.01575
G1 X110.663 Y115.115 E.01566
G1 X110.967 Y115.511 E.01566
G1 X111.158 Y115.973 E.01566
G1 X111.224 Y116.468 E.01566
G1 X111.158 Y116.963 E.01566
G1 X110.967 Y117.425 E.01566
G1 X110.663 Y117.821 E.01566
G1 X110.314 Y118.088 E.01378
G1 X110.267 Y118.525 F10800
;WIPE_START
G1 F8640
G1 X109.805 Y118.316 E-.12878
G1 X109.31 Y118.381 E-.11534
G1 X108.815 Y118.316 E-.11534
G1 X108.353 Y118.125 E-.11534
G1 X107.957 Y117.821 E-.11534
G1 X107.653 Y117.425 E-.11534
G1 X107.563 Y117.206 E-.05451
;WIPE_END
G1 E-.04 F2100
G1 Z.6 F10800
G1 X91.391 Y120.489
G1 Z.2
G1 E.8 F2100
G1 F1200
G1 X91.456 Y120.984 E.01566
G1 X91.391 Y121.479 E.01566
G1 X91.2 Y121.941 E.01566
G1 X90.896 Y122.337 E.01566
G1 X90.499 Y122.641 E.01566
G1 X90.038 Y122.832 E.01566
G1 X89.542 Y122.898 E.01566
G1 X89.047 Y122.832 E.01566
G1 X88.586 Y122.641 E.01566
G1 X88.189 Y122.337 E.01566
G1 X87.885 Y121.941 E.01566
G1 X87.694 Y121.479 E.01566
G1 X87.629 Y120.984 E.01566
G1 X87.694 Y120.489 E.01566
G1 X87.885 Y120.027 E.01566
G1 X88.189 Y119.631 E.01566
G1 X88.586 Y119.327 E.01566
G1 X89.047 Y119.136 E.01566
G1 X89.488 Y119.078 E.01393
G1 X90.035 Y119.135 E.01726
G1 X90.499 Y119.327 E.01575
G1 X90.896 Y119.631 E.01566
G1 X91.2 Y120.027 E.01566
G1 X91.368 Y120.433 E.01378
G1 X91.777 Y120.592 F10800
;WIPE_START
G1 F8640
G1 X91.456 Y120.984 E-.12878
G1 X91.391 Y121.479 E-.11534
G1 X91.2 Y121.941 E-.11534
G1 X90.896 Y122.337 E-.11534
G1 X90.499 Y122.641 E-.11534
G1 X90.038 Y122.832 E-.11534
G1 X89.804 Y122.863 E-.05451
;WIPE_END
G1 E-.04 F2100
G1 Z.6 F10800
G1 X90.499 Y118.125
G1 Z.2
G1 E.8 F2100
G1 F1200
G1 X90.038 Y118.316 E.01566
G1 X89.542 Y118.381 E.01566
G1 X89.047 Y118.316 E.01566
G1 X88.586 Y118.125 E.01566
G1 X88.189 Y117.821 E.01566
G1 X87.885 Y117.425 E.01566
G1 X87.694 Y116.963 E.01566
G1 X87.629 Y116.468 E.01566
G1 X87.694 Y115.973 E.01566
G1 X87.885 Y115.511 E.01566
G1 X88.189 Y115.115 E.01566
G1 X88.586 Y114.811 E.01566
G1 X89.047 Y114.619 E.01566
G1 X89.488 Y114.561 E.01393
G1 X90.035 Y114.618 E.01726
G1 X90.499 Y114.811 E.01575
G1 X90.896 Y115.115 E.01566
G1 X91.2 Y115.511 E.01566
G1 X91.391 Y115.973 E.01566
G1 X91.456 Y116.468 E.01566
G1 X91.391 Y116.963 E.01566
G1 X91.2 Y117.425 E.01566
G1 X90.896 Y117.821 E.01566
G1 X90.547 Y118.088 E.01378
G1 X90.499 Y118.525 F10800
;WIPE_START
G1 F8640
G1 X90.038 Y118.316 E-.12878
G1 X89.542 Y118.381 E-.11534
G1 X89.047 Y118.316 E-.11534
G1 X88.586 Y118.125 E-.11534
G1 X88.189 Y117.821 E-.11534
G1 X87.885 Y117.425 E-.11534
G1 X87.795 Y117.206 E-.05451
;WIPE_END
G1 E-.04 F2100
G1 Z.6 F10800
G1 X84.14 Y116.963
G1 Z.2
G1 E.8 F2100
G1 F1200
G1 X83.949 Y117.425 E.01566
G1 X83.645 Y117.821 E.01566
G1 X83.249 Y118.125 E.01566
G1 X82.787 Y118.316 E.01566
G1 X82.292 Y118.381 E.01566
G1 X81.797 Y118.316 E.01566
G1 X81.335 Y118.125 E.01566
G1 X80.939 Y117.821 E.01566
G1 X80.635 Y117.425 E.01566
G1 X80.444 Y116.963 E.01566
G1 X80.379 Y116.468 E.01566
G1 X80.444 Y115.973 E.01566
G1 X80.635 Y115.511 E.01566
G1 X80.939 Y115.115 E.01566
G1 X81.335 Y114.811 E.01566
G1 X81.797 Y114.619 E.01566
G1 X82.237 Y114.561 E.01393
G1 X82.785 Y114.618 E.01726
G1 X83.249 Y114.811 E.01575
G1 X83.645 Y115.115 E.01566
G1 X83.949 Y115.511 E.01566
G1 X84.14 Y115.973 E.01566
G1 X84.206 Y116.468 E.01566
G1 X84.148 Y116.904 E.01378
G1 X84.423 Y117.246 F10800
;WIPE_START
G1 F8640
G1 X83.949 Y117.425 E-.12878
G1 X83.645 Y117.821 E-.11534
G1 X83.249 Y118.125 E-.11535
G1 X82.787 Y118.316 E-.11534
G1 X82.292 Y118.381 E-.11534
G1 X81.797 Y118.316 E-.11534
G1 X81.579 Y118.226 E-.05451
;WIPE_END
G1 E-.04 F2100
G1 Z.6 F10800
G1 X82.785 Y119.135
G1 Z.2
G1 E.8 F2100
G1 F1200
G1 X83.249 Y119.327 E.01575
G1 X83.645 Y119.631 E.01566
G1 X83.949 Y120.027 E.01566
G1 X84.14 Y120.489 E.01566
G1 X84.206 Y120.984 E.01566
G1 X84.14 Y121.479 E.01566
G1 X83.949 Y121.941 E.01566
G1 X83.645 Y122.337 E.01566
G1 X83.249 Y122.641 E.01566
G1 X82.787 Y122.832 E.01566
G1 X82.292 Y122.898 E.01566
G1 X81.797 Y122.832 E.01566
G1 X81.335 Y122.641 E.01566
G1 X80.939 Y122.337 E.01566
G1 X80.635 Y121.941 E.01566
G1 X80.444 Y121.479 E.01566
G1 X80.379 Y120.984 E.01566
G1 X80.444 Y120.489 E.01566
G1 X80.635 Y120.027 E.01566
G1 X80.939 Y119.631 E.01566
G1 X81.335 Y119.327 E.01566
G1 X81.797 Y119.136 E.01566
G1 X82.237 Y119.078 E.01393
G1 X82.725 Y119.128 E.01538
G1 X83.067 Y118.852 F10800
;WIPE_START
G1 F8640
G1 X83.249 Y119.327 E-.12936
G1 X83.645 Y119.631 E-.11535
G1 X83.949 Y120.027 E-.11534
G1 X84.14 Y120.489 E-.11534
G1 X84.206 Y120.984 E-.11534
G1 X84.14 Y121.479 E-.11534
G1 X84.051 Y121.695 E-.05392
;WIPE_END
G1 E-.04 F2100
G1 Z.6 F10800
G1 X70.539 Y120.984
G1 Z.2
G1 E.8 F2100
G1 F1200
G1 X70.474 Y121.479 E.01566
G1 X70.283 Y121.941 E.01566
G1 X69.979 Y122.337 E.01566
G1 X69.583 Y122.641 E.01566
G1 X69.121 Y122.832 E.01566
G1 X68.626 Y122.898 E.01566
G1 X68.131 Y122.832 E.01566
G1 X67.669 Y122.641 E.01566
G1 X67.273 Y122.337 E.01566
G1 X66.969 Y121.941 E.01566
G1 X66.777 Y121.479 E.01566
G1 X66.712 Y120.984 E.01566
G1 X66.777 Y120.489 E.01566
G1 X66.969 Y120.027 E.01566
G1 X67.273 Y119.631 E.01566
G1 X67.669 Y119.327 E.01566
G1 X68.131 Y119.136 E.01566
G1 X68.571 Y119.078 E.01393
G1 X69.118 Y119.135 E.01726
G1 X69.583 Y119.327 E.01575
G1 X69.979 Y119.631 E.01566
G1 X70.283 Y120.027 E.01566
G1 X70.474 Y120.489 E.01566
G1 X70.532 Y120.925 E.01378
G1 X70.886 Y121.184 F10800
;WIPE_START
G1 F8640
G1 X70.474 Y121.479 E-.12878
G1 X70.283 Y121.941 E-.11534
G1 X69.979 Y122.337 E-.11534
G1 X69.583 Y122.641 E-.11534
G1 X69.121 Y122.832 E-.11534
G1 X68.626 Y122.898 E-.11534
G1 X68.392 Y122.867 E-.05451
;WIPE_END
G1 E-.04 F2100
G1 Z.6 F10800
G1 X69.583 Y118.125
G1 Z.2
G1 E.8 F2100
G1 F1200
G1 X69.121 Y118.316 E.01566
G1 X68.626 Y118.381 E.01566
G1 X68.131 Y118.316 E.01566
G1 X67.669 Y118.125 E.01566
G1 X67.273 Y117.821 E.01566
G1 X66.969 Y117.425 E.01566
G1 X66.777 Y116.963 E.01566
G1 X66.712 Y116.468 E.01566
G1 X66.777 Y115.973 E.01566
G1 X66.969 Y115.511 E.01566
G1 X67.273 Y115.115 E.01566
G1 X67.669 Y114.811 E.01566
G1 X68.131 Y114.619 E.01566
G1 X68.571 Y114.561 E.01393
G1 X69.118 Y114.618 E.01726
G1 X69.583 Y114.811 E.01575
G1 X69.979 Y115.115 E.01566
G1 X70.283 Y115.511 E.01566
G1 X70.474 Y115.973 E.01566
G1 X70.539 Y116.468 E.01566
G1 X70.474 Y116.963 E.01566
G1 X70.283 Y117.425 E.01566
G1 X69.979 Y117.821 E.01566
G1 X69.63 Y118.088 E.01378
G1 X69.583 Y118.525 F10800
;WIPE_START
G1 F8640
G1 X69.121 Y118.316 E-.12877
G1 X68.626 Y118.381 E-.11534
G1 X68.131 Y118.316 E-.11534
G1 X67.669 Y118.125 E-.11534
G1 X67.273 Y117.821 E-.11534
G1 X66.969 Y117.425 E-.11534
G1 X66.878 Y117.206 E-.05451
;WIPE_END
G1 E-.04 F2100
G1 Z.6 F10800
G1 X63.224 Y116.963
G1 Z.2
G1 E.8 F2100
G1 F1200
G1 X63.033 Y117.425 E.01566
G1 X62.729 Y117.821 E.01566
G1 X62.332 Y118.125 E.01566
G1 X61.871 Y118.316 E.01566
G1 X61.375 Y118.381 E.01566
G1 X60.88 Y118.316 E.01566
G1 X60.419 Y118.125 E.01566
G1 X60.022 Y117.821 E.01566
G1 X59.718 Y117.425 E.01566
G1 X59.527 Y116.963 E.01566
G1 X59.462 Y116.468 E.01566
G1 X59.527 Y115.973 E.01566
G1 X59.718 Y115.511 E.01566
G1 X60.022 Y115.115 E.01566
G1 X60.419 Y114.811 E.01566
G1 X60.88 Y114.619 E.01566
G1 X61.321 Y114.561 E.01393
G1 X61.868 Y114.618 E.01726
G1 X62.332 Y114.811 E.01575
G1 X62.729 Y115.115 E.01566
G1 X63.033 Y115.511 E.01566
G1 X63.224 Y115.973 E.01566
G1 X63.289 Y116.468 E.01566
G1 X63.232 Y116.904 E.01378
G1 X63.507 Y117.246 F10800
;WIPE_START
G1 F8640
G1 X63.033 Y117.425 E-.12877
G1 X62.729 Y117.821 E-.11534
G1 X62.332 Y118.125 E-.11535
G1 X61.871 Y118.316 E-.11534
G1 X61.375 Y118.381 E-.11534
G1 X60.88 Y118.316 E-.11534
G1 X60.662 Y118.226 E-.05451
;WIPE_END
G1 E-.04 F2100
G1 Z.6 F10800
G1 X61.868 Y119.135
G1 Z.2
G1 E.8 F2100
G1 F1200
G1 X62.332 Y119.327 E.01575
G1 X62.729 Y119.631 E.01566
G1 X63.033 Y120.027 E.01566
G1 X63.224 Y120.489 E.01566
G1 X63.289 Y120.984 E.01566
G1 X63.224 Y121.479 E.01566
G1 X63.033 Y121.941 E.01566
G1 X62.729 Y122.337 E.01566
G1 X62.332 Y122.641 E.01566
G1 X61.871 Y122.832 E.01566
G1 X61.375 Y122.898 E.01566
G1 X60.88 Y122.832 E.01566
G1 X60.419 Y122.641 E.01566
G1 X60.022 Y122.337 E.01566
G1 X59.718 Y121.941 E.01566
G1 X59.527 Y121.479 E.01566
G1 X59.462 Y120.984 E.01566
G1 X59.527 Y120.489 E.01566
G1 X59.718 Y120.027 E.01566
G1 X60.022 Y119.631 E.01566
G1 X60.419 Y119.327 E.01566
G1 X60.88 Y119.136 E.01566
G1 X61.321 Y119.078 E.01393
G1 X61.808 Y119.128 E.01538
G1 X62.151 Y118.852 F10800
;WIPE_START
G1 F8640
G1 X62.332 Y119.327 E-.12936
G1 X62.729 Y119.631 E-.11534
G1 X63.033 Y120.027 E-.11534
G1 X63.224 Y120.489 E-.11534
G1 X63.289 Y120.984 E-.11534
G1 X63.224 Y121.479 E-.11534
G1 X63.134 Y121.695 E-.05392
;WIPE_END
G1 E-.04 F2100
G1 Z.6 F10800
G1 X51.239 Y120.519
G1 Z.2
G1 E.8 F2100
G1 F1200
G1 X51.3 Y120.984 E.01469
G1 X51.235 Y121.479 E.01566
G1 X51.044 Y121.941 E.01566
G1 X50.74 Y122.337 E.01566
G1 X50.343 Y122.641 E.01566
G1 X49.882 Y122.832 E.01566
G1 X49.386 Y122.898 E.01566
M73 P0 R113
G1 X48.891 Y122.832 E.01566
G1 X48.43 Y122.641 E.01566
G1 X48.033 Y122.337 E.01566
G1 X47.729 Y121.941 E.01566
G1 X47.538 Y121.479 E.01566
G1 X47.473 Y120.984 E.01566
G1 X47.538 Y120.489 E.01566
G1 X47.729 Y120.027 E.01566
G1 X48.033 Y119.631 E.01566
G1 X48.43 Y119.327 E.01566
G1 X48.891 Y119.136 E.01566
G1 X49.332 Y119.078 E.01393
G1 X49.879 Y119.135 E.01726
G1 X50.343 Y119.327 E.01575
G1 X50.74 Y119.631 E.01566
G1 X51.044 Y120.027 E.01566
G1 X51.224 Y120.462 E.01475
G1 X51.625 Y120.625 F10800
;WIPE_START
G1 F8640
G1 X51.3 Y120.984 E-.12183
G1 X51.235 Y121.479 E-.11534
G1 X51.044 Y121.941 E-.11535
G1 X50.74 Y122.337 E-.11534
G1 X50.343 Y122.641 E-.11534
G1 X49.882 Y122.832 E-.11534
