; generated by PrusaSlicer 2.4.0+win64 on 2022-01-05 at 23:22:06 UTC

; 

; external perimeters extrusion width = 0.45mm
; perimeters extrusion width = 0.45mm
; infill extrusion width = 0.45mm
; solid infill extrusion width = 0.45mm
; top infill extrusion width = 0.40mm
; first layer extrusion width = 0.42mm

M73 P0 R302
M73 Q0 S314
M201 X1000 Y1000 Z200 E5000 ; sets maximum accelerations, mm/sec^2
M203 X200 Y200 Z12 E120 ; sets maximum feedrates, mm/sec
M204 P1250 R1250 T1250 ; sets acceleration (P, T) and retract acceleration (R), mm/sec^2
M205 X8.00 Y8.00 Z0.40 E4.50 ; sets the jerk limits, mm/sec
M205 S0 T0 ; sets the minimum extruding and travel feed rate, mm/sec
M107
;TYPE:Custom
M862.3 P "MK3S" ; printer model check
M862.1 P0.4 ; nozzle diameter check
M115 U3.10.0 ; tell printer latest fw version
G90 ; use absolute coordinates
M83 ; extruder relative mode
M104 S215 ; set extruder temp
M140 S60 ; set bed temp
M190 S60 ; wait for bed temp
M109 S215 ; wait for extruder temp
G28 W ; home all without mesh bed level
G80 ; mesh bed leveling
G1 Y-3.0 F1000.0 ; go outside print area
G92 E0.0
G1 X60.0 E9.0 F1000.0 ; intro line
G1 X100.0 E12.5 F1000.0 ; intro line
G92 E0.0
M221 S95

; Don't change E values below. Excessive value can damage the printer.

M907 E538 ; set extruder motor current
G21 ; set units to millimeters
G90 ; use absolute coordinates
M83 ; use relative distances for extrusion
M900 K0.05 ; Filament gcode LA 1.5
M900 K30 ; Filament gcode LA 1.0
M107
;LAYER_CHANGE
;Z:0.2
;HEIGHT:0.2
;BEFORE_LAYER_CHANGE
G92 E0.0
;0.2


G1 E-.8 F2100
G1 Z.4 F10800
;AFTER_LAYER_CHANGE
;0.2
G1 X11.147 Y32.817
G1 Z.2
G1 E.8 F2100
M204 S1000
;TYPE:Skirt/Brim
;WIDTH:0.42
G1 F1200
G1 X12.087 Y32.623 E.03008
G1 X237.913 Y32.623 E7.08064
G1 X239.22 Y33.015 E.04278
M73 P0 R301
M73 Q0 S313
G1 X240.097 Y34.06 E.04278
G1 X240.29 Y35 E.03008
G1 X240.29 Y175 E4.3896
G1 X239.899 Y176.307 E.04278
G1 X238.853 Y177.183 E.04278
G1 X237.913 Y177.377 E.03008
G1 X12.087 Y177.377 E7.08064
G1 X10.78 Y176.985 E.04278
G1 X9.903 Y175.94 E.04278
G1 X9.71 Y175 E.03008
G1 X9.71 Y35 E4.3896
G1 X10.101 Y33.693 E.04278
G1 X11.101 Y32.855 E.0409
; printing object Top Case.stl id:0 copy 0
;WIPE_START
G1 F8640
G1 X12.087 Y32.623 E-.23384
G1 X14.365 Y32.623 E-.52616
;WIPE_END
G1 E-.04 F2100
G1 Z.6 F10800
G1 X14.427 Y35.787
G1 Z.2
G1 E.8 F2100
;TYPE:Perimeter
G1 F1200
G1 X235.973 Y35.787 E6.94639
G1 X235.973 Y174.213 E4.34025
G1 X14.027 Y174.213 E6.95893
G1 X14.027 Y35.787 E4.34025
M73 P0 R300
G1 X14.367 Y35.787 E.01066
M73 Q0 S312
G1 X13.65 Y35.41 F10800
;TYPE:External perimeter
G1 F1200
G1 X236.35 Y35.41 E6.98258
G1 X236.35 Y174.59 E4.36389
G1 X13.65 Y174.59 E6.98258
G1 X13.65 Y35.47 E4.36201
G1 X14.043 Y35.484 F10800
;WIPE_START
G1 F8640
G1 X16.942 Y35.469 E-.76
;WIPE_END
G1 E-.04 F2100
G1 Z.6 F10800
G1 X235.859 Y36.663
G1 Z.2
G1 E.8 F2100
;TYPE:Solid infill
;WIDTH:0.420037
G1 F1200
G1 X235.267 Y36.07 E.02628
G1 X234.733 Y36.07 E.01672
G1 X235.69 Y37.026 E.04241
G1 X235.69 Y37.56 E.01672
G1 X234.2 Y36.07 E.06606
G1 X233.667 Y36.07 E.01672
G1 X235.69 Y38.093 E.08971
G1 X235.69 Y38.626 E.01672
G1 X233.133 Y36.07 E.11336
G1 X232.6 Y36.07 E.01672
G1 X235.69 Y39.159 E.13701
G1 X235.69 Y39.693 E.01672
G1 X232.067 Y36.07 E.16066
G1 X231.533 Y36.07 E.01672
G1 X235.69 Y40.226 E.18431
G1 X235.69 Y40.759 E.01672
G1 X231 Y36.07 E.20796
G1 X230.467 Y36.07 E.01672
G1 X235.69 Y41.293 E.23161
G1 X235.69 Y41.826 E.01672
G1 X229.933 Y36.07 E.25527
G1 X229.4 Y36.07 E.01672
G1 X235.69 Y42.359 E.27892
G1 X235.69 Y42.893 E.01672
G1 X228.867 Y36.07 E.30257
G1 X228.334 Y36.07 E.01672
G1 X235.69 Y43.426 E.32622
G1 X235.69 Y43.959 E.01672
G1 X227.8 Y36.07 E.34987
G1 X227.267 Y36.07 E.01672
G1 X235.69 Y44.493 E.37352
G1 X235.69 Y45.026 E.01672
G1 X226.734 Y36.07 E.39717
G1 X226.2 Y36.07 E.01672
G1 X235.69 Y45.559 E.42082
G1 X235.69 Y46.093 E.01672
G1 X225.667 Y36.07 E.44447
G1 X225.134 Y36.07 E.01672
G1 X235.69 Y46.626 E.46812
G1 X235.69 Y47.159 E.01672
G1 X224.6 Y36.07 E.49177
G1 X224.067 Y36.07 E.01672
G1 X235.69 Y47.693 E.51542
G1 X235.69 Y48.226 E.01672
G1 X223.534 Y36.07 E.53908
G1 X223 Y36.07 E.01672
G1 X235.69 Y48.759 E.56273
G1 X235.69 Y49.293 E.01672
G1 X222.467 Y36.07 E.58638
G1 X221.934 Y36.07 E.01672
M73 P0 R299
G1 X235.69 Y49.826 E.61003
G1 X235.69 Y50.359 E.01672
G1 X221.4 Y36.07 E.63368
G1 X220.867 Y36.07 E.01672
M73 Q0 S311
G1 X235.69 Y50.893 E.65733
G1 X235.69 Y51.426 E.01672
G1 X220.334 Y36.07 E.68098
G1 X219.8 Y36.07 E.01672
G1 X235.69 Y51.959 E.70463
G1 X235.69 Y52.493 E.01672
G1 X219.267 Y36.07 E.72828
G1 X218.734 Y36.07 E.01672
G1 X235.69 Y53.026 E.75193
G1 X235.69 Y53.559 E.01672
G1 X218.2 Y36.07 E.77558
G1 X217.667 Y36.07 E.01672
G1 X235.69 Y54.093 E.79923
G1 X235.69 Y54.626 E.01672
G1 X217.134 Y36.07 E.82289
G1 X216.6 Y36.07 E.01672
G1 X235.69 Y55.159 E.84654
G1 X235.69 Y55.693 E.01672
G1 X216.067 Y36.07 E.87019
G1 X215.534 Y36.07 E.01672
G1 X235.69 Y56.226 E.89384
G1 X235.69 Y56.759 E.01672
G1 X215 Y36.07 E.91749
G1 X214.467 Y36.07 E.01672
G1 X235.69 Y57.292 E.94114
G1 X235.69 Y57.826 E.01672
G1 X213.934 Y36.07 E.96479
G1 X213.4 Y36.07 E.01672
G1 X235.69 Y58.359 E.98844
G1 X235.69 Y58.892 E.01672
G1 X212.867 Y36.07 E1.01209
G1 X212.334 Y36.07 E.01672
G1 X235.69 Y59.426 E1.03574
G1 X235.69 Y59.959 E.01672
G1 X211.8 Y36.07 E1.05939
G1 X211.267 Y36.07 E.01672
G1 X235.69 Y60.492 E1.08304
G1 X235.69 Y61.026 E.01672
G1 X210.734 Y36.07 E1.1067
G1 X210.201 Y36.07 E.01672
G1 X235.69 Y61.559 E1.13035
G1 X235.69 Y62.092 E.01672
G1 X209.667 Y36.07 E1.154
G1 X209.134 Y36.07 E.01672
G1 X235.69 Y62.626 E1.17765
G1 X235.69 Y63.159 E.01672
G1 X208.601 Y36.07 E1.2013
G1 X208.067 Y36.07 E.01672
G1 X235.69 Y63.692 E1.22495
G1 X235.69 Y64.226 E.01672
G1 X207.534 Y36.07 E1.2486
G1 X207.001 Y36.07 E.01672
G1 X235.69 Y64.759 E1.27225
G1 X235.69 Y65.292 E.01672
G1 X206.467 Y36.07 E1.2959
G1 X205.934 Y36.07 E.01672
G1 X235.69 Y65.826 E1.31955
G1 X235.69 Y66.359 E.01672
G1 X205.401 Y36.07 E1.3432
G1 X204.867 Y36.07 E.01672
M73 P1 R299
G1 X235.69 Y66.892 E1.36685
G1 X235.69 Y67.426 E.01672
G1 X204.334 Y36.07 E1.39051
G1 X203.801 Y36.07 E.01672
G1 X235.69 Y67.959 E1.41416
M73 Q1 S311
G1 X235.69 Y68.492 E.01672
G1 X203.267 Y36.07 E1.43781
G1 X202.734 Y36.07 E.01672
M73 P1 R298
G1 X235.69 Y69.026 E1.46146
G1 X235.69 Y69.559 E.01672
M73 Q1 S310
G1 X202.201 Y36.07 E1.48511
G1 X201.667 Y36.07 E.01672
G1 X235.69 Y70.092 E1.50876
G1 X235.69 Y70.626 E.01672
G1 X201.134 Y36.07 E1.53241
G1 X200.601 Y36.07 E.01672
G1 X235.69 Y71.159 E1.55606
G1 X235.69 Y71.692 E.01672
G1 X200.067 Y36.07 E1.57971
G1 X199.534 Y36.07 E.01672
G1 X235.69 Y72.226 E1.60336
G1 X235.69 Y72.759 E.01672
G1 X199.001 Y36.07 E1.62701
G1 X198.467 Y36.07 E.01672
G1 X235.69 Y73.292 E1.65066
G1 X235.69 Y73.826 E.01672
G1 X197.934 Y36.07 E1.67432
G1 X197.401 Y36.07 E.01672
G1 X235.69 Y74.359 E1.69797
G1 X235.69 Y74.892 E.01672
G1 X196.867 Y36.07 E1.72162
G1 X196.334 Y36.07 E.01672
G1 X235.69 Y75.426 E1.74527
G1 X235.69 Y75.959 E.01672
G1 X195.801 Y36.07 E1.76892
G1 X195.267 Y36.07 E.01672
G1 X235.69 Y76.492 E1.79257
G1 X235.69 Y77.025 E.01672
G1 X194.734 Y36.07 E1.81622
G1 X194.201 Y36.07 E.01672
G1 X235.69 Y77.559 E1.83987
G1 X235.69 Y78.092 E.01672
G1 X193.667 Y36.07 E1.86352
G1 X193.134 Y36.07 E.01672
G1 X235.69 Y78.625 E1.88717
G1 X235.69 Y79.159 E.01672
G1 X192.601 Y36.07 E1.91082
G1 X192.067 Y36.07 E.01672
G1 X235.69 Y79.692 E1.93447
G1 X235.69 Y80.225 E.01672
G1 X191.534 Y36.07 E1.95812
G1 X191.001 Y36.07 E.01672
M73 P1 R297
G1 X235.69 Y80.759 E1.98178
G1 X235.69 Y81.292 E.01672
M73 Q1 S309
G1 X190.468 Y36.07 E2.00543
G1 X189.934 Y36.07 E.01672
G1 X235.69 Y81.825 E2.02908
G1 X235.69 Y82.359 E.01672
G1 X189.401 Y36.07 E2.05273
G1 X188.868 Y36.07 E.01672
G1 X235.69 Y82.892 E2.07638
G1 X235.69 Y83.425 E.01672
G1 X188.334 Y36.07 E2.10003
G1 X187.801 Y36.07 E.01672
G1 X235.69 Y83.959 E2.12368
G1 X235.69 Y84.492 E.01672
G1 X187.268 Y36.07 E2.14733
G1 X186.734 Y36.07 E.01672
G1 X235.69 Y85.025 E2.17098
G1 X235.69 Y85.559 E.01672
G1 X186.201 Y36.07 E2.19463
G1 X185.668 Y36.07 E.01672
G1 X235.69 Y86.092 E2.21828
G1 X235.69 Y86.625 E.01672
G1 X185.134 Y36.07 E2.24193
G1 X184.601 Y36.07 E.01672
G1 X235.69 Y87.159 E2.26559
G1 X235.69 Y87.692 E.01672
G1 X184.068 Y36.07 E2.28924
G1 X183.534 Y36.07 E.01672
G1 X235.69 Y88.225 E2.31289
G1 X235.69 Y88.759 E.01672
G1 X183.001 Y36.07 E2.33654
G1 X182.468 Y36.07 E.01672
G1 X235.69 Y89.292 E2.36019
G1 X235.69 Y89.825 E.01672
M73 P1 R296
G1 X181.934 Y36.07 E2.38384
G1 X181.401 Y36.07 E.01672
M73 Q1 S308
G1 X235.69 Y90.359 E2.40749
G1 X235.69 Y90.892 E.01672
G1 X180.868 Y36.07 E2.43114
G1 X180.334 Y36.07 E.01672
G1 X235.69 Y91.425 E2.45479
G1 X235.69 Y91.959 E.01672
G1 X179.801 Y36.07 E2.47844
G1 X179.268 Y36.07 E.01672
G1 X235.69 Y92.492 E2.50209
G1 X235.69 Y93.025 E.01672
G1 X178.734 Y36.07 E2.52574
G1 X178.201 Y36.07 E.01672
G1 X235.69 Y93.559 E2.5494
G1 X235.69 Y94.092 E.01672
G1 X177.668 Y36.07 E2.57305
G1 X177.134 Y36.07 E.01672
G1 X235.69 Y94.625 E2.5967
G1 X235.69 Y95.158 E.01672
G1 X176.601 Y36.07 E2.62035
G1 X176.068 Y36.07 E.01672
G1 X235.69 Y95.692 E2.644
G1 X235.69 Y96.225 E.01672
G1 X175.534 Y36.07 E2.66765
G1 X175.001 Y36.07 E.01672
M73 P2 R296
G1 X235.69 Y96.758 E2.6913
G1 X235.69 Y97.292 E.01672
G1 X174.468 Y36.07 E2.71495
G1 X173.934 Y36.07 E.01672
M73 P2 R295
M73 Q1 S307
G1 X235.69 Y97.825 E2.7386
G1 X235.69 Y98.358 E.01672
M73 Q2 S307
G1 X173.401 Y36.07 E2.76225
G1 X172.868 Y36.07 E.01672
G1 X235.69 Y98.892 E2.7859
G1 X235.69 Y99.425 E.01672
G1 X172.335 Y36.07 E2.80955
G1 X171.801 Y36.07 E.01672
G1 X235.69 Y99.958 E2.83321
G1 X235.69 Y100.492 E.01672
G1 X171.268 Y36.07 E2.85686
G1 X170.735 Y36.07 E.01672
G1 X235.69 Y101.025 E2.88051
G1 X235.69 Y101.558 E.01672
G1 X170.201 Y36.07 E2.90416
G1 X169.668 Y36.07 E.01672
G1 X235.69 Y102.092 E2.92781
G1 X235.69 Y102.625 E.01672
G1 X169.135 Y36.07 E2.95146
G1 X168.601 Y36.07 E.01672
G1 X235.69 Y103.158 E2.97511
G1 X235.69 Y103.692 E.01672
G1 X168.068 Y36.07 E2.99876
G1 X167.535 Y36.07 E.01672
G1 X235.69 Y104.225 E3.02241
G1 X235.69 Y104.758 E.01672
M73 P2 R294
M73 Q2 S306
G1 X167.001 Y36.07 E3.04606
G1 X166.468 Y36.07 E.01672
G1 X235.69 Y105.292 E3.06971
G1 X235.69 Y105.825 E.01672
G1 X165.935 Y36.07 E3.09336
G1 X165.401 Y36.07 E.01672
G1 X235.69 Y106.358 E3.11702
G1 X235.69 Y106.892 E.01672
G1 X164.868 Y36.07 E3.14067
G1 X164.335 Y36.07 E.01672
G1 X235.69 Y107.425 E3.16432
G1 X235.69 Y107.958 E.01672
G1 X163.801 Y36.07 E3.18797
G1 X163.268 Y36.07 E.01672
G1 X235.69 Y108.492 E3.21162
G1 X235.69 Y109.025 E.01672
G1 X162.735 Y36.07 E3.23527
G1 X162.201 Y36.07 E.01672
G1 X235.69 Y109.558 E3.25892
G1 X235.69 Y110.092 E.01672
G1 X161.668 Y36.07 E3.28257
G1 X161.135 Y36.07 E.01672
G1 X235.69 Y110.625 E3.30622
G1 X235.69 Y111.158 E.01672
M73 P2 R293
M73 Q2 S305
G1 X160.601 Y36.07 E3.32987
G1 X160.068 Y36.07 E.01672
G1 X235.69 Y111.692 E3.35352
G1 X235.69 Y112.225 E.01672
G1 X159.535 Y36.07 E3.37717
G1 X159.001 Y36.07 E.01672
G1 X235.69 Y112.758 E3.40083
G1 X235.69 Y113.292 E.01672
G1 X158.468 Y36.07 E3.42448
G1 X157.935 Y36.07 E.01672
G1 X235.69 Y113.825 E3.44813
G1 X235.69 Y114.358 E.01672
G1 X157.401 Y36.07 E3.47178
G1 X156.868 Y36.07 E.01672
G1 X235.69 Y114.891 E3.49543
G1 X235.69 Y115.425 E.01672
G1 X156.335 Y36.07 E3.51908
G1 X155.801 Y36.07 E.01672
M73 P3 R293
G1 X235.69 Y115.958 E3.54273
G1 X235.69 Y116.491 E.01672
G1 X155.268 Y36.07 E3.56638
G1 X154.735 Y36.07 E.01672
M73 P3 R292
M73 Q2 S304
G1 X235.69 Y117.025 E3.59003
G1 X235.69 Y117.558 E.01672
G1 X154.201 Y36.07 E3.61368
G1 X153.668 Y36.07 E.01672
M73 Q3 S304
G1 X235.69 Y118.091 E3.63733
G1 X235.69 Y118.625 E.01672
G1 X153.135 Y36.07 E3.66098
G1 X152.602 Y36.07 E.01672
G1 X235.69 Y119.158 E3.68464
G1 X235.69 Y119.691 E.01672
G1 X152.068 Y36.07 E3.70829
G1 X151.535 Y36.07 E.01672
G1 X235.69 Y120.225 E3.73194
G1 X235.69 Y120.758 E.01672
G1 X151.002 Y36.07 E3.75559
G1 X150.468 Y36.07 E.01672
G1 X235.69 Y121.291 E3.77924
G1 X235.69 Y121.825 E.01672
G1 X149.935 Y36.07 E3.80289
G1 X149.402 Y36.07 E.01672
M73 P3 R291
M73 Q3 S303
G1 X235.69 Y122.358 E3.82654
G1 X235.69 Y122.891 E.01672
G1 X148.868 Y36.07 E3.85019
G1 X148.335 Y36.07 E.01672
G1 X235.69 Y123.425 E3.87384
G1 X235.69 Y123.958 E.01672
G1 X147.802 Y36.07 E3.89749
G1 X147.268 Y36.07 E.01672
G1 X235.69 Y124.491 E3.92114
G1 X235.69 Y125.025 E.01672
G1 X146.735 Y36.07 E3.94479
G1 X146.202 Y36.07 E.01672
G1 X235.69 Y125.558 E3.96844
G1 X235.69 Y126.091 E.01672
G1 X145.668 Y36.07 E3.9921
G1 X145.135 Y36.07 E.01672
G1 X235.69 Y126.625 E4.01575
G1 X235.69 Y127.158 E.01672
M73 P3 R290
G1 X144.602 Y36.07 E4.0394
G1 X144.068 Y36.07 E.01672
M73 Q3 S302
G1 X235.69 Y127.691 E4.06305
G1 X235.69 Y128.225 E.01672
G1 X143.535 Y36.07 E4.0867
G1 X143.002 Y36.07 E.01672
G1 X235.69 Y128.758 E4.11035
G1 X235.69 Y129.291 E.01672
G1 X142.468 Y36.07 E4.134
G1 X141.935 Y36.07 E.01672
G1 X235.69 Y129.825 E4.15765
G1 X235.69 Y130.358 E.01672
G1 X141.402 Y36.07 E4.1813
G1 X140.868 Y36.07 E.01672
G1 X235.69 Y130.891 E4.20495
G1 X235.69 Y131.425 E.01672
G1 X140.335 Y36.07 E4.2286
G1 X139.802 Y36.07 E.01672
M73 P4 R289
G1 X235.69 Y131.958 E4.25225
G1 X235.69 Y132.491 E.01672
M73 Q3 S301
G1 X139.268 Y36.07 E4.27591
G1 X138.735 Y36.07 E.01672
G1 X235.69 Y133.024 E4.29956
G1 X235.69 Y133.558 E.01672
G1 X138.202 Y36.07 E4.32321
G1 X137.668 Y36.07 E.01672
M73 Q4 S301
G1 X235.69 Y134.091 E4.34686
G1 X235.69 Y134.624 E.01672
G1 X137.135 Y36.07 E4.37051
G1 X136.602 Y36.07 E.01672
G1 X235.69 Y135.158 E4.39416
G1 X235.69 Y135.691 E.01672
G1 X136.068 Y36.07 E4.41781
G1 X135.535 Y36.07 E.01672
G1 X235.69 Y136.224 E4.44146
G1 X235.69 Y136.758 E.01672
M73 P4 R288
M73 Q4 S300
G1 X135.002 Y36.07 E4.46511
G1 X134.469 Y36.07 E.01672
G1 X235.69 Y137.291 E4.48876
G1 X235.69 Y137.824 E.01672
G1 X133.935 Y36.07 E4.51241
G1 X133.402 Y36.07 E.01672
G1 X235.69 Y138.358 E4.53606
G1 X235.69 Y138.891 E.01672
G1 X132.869 Y36.07 E4.55972
G1 X132.335 Y36.07 E.01672
G1 X235.69 Y139.424 E4.58337
G1 X235.69 Y139.958 E.01672
G1 X131.802 Y36.07 E4.60702
G1 X131.269 Y36.07 E.01672
G1 X235.69 Y140.491 E4.63067
G1 X235.69 Y141.024 E.01672
M73 P4 R287
G1 X130.735 Y36.07 E4.65432
G1 X130.202 Y36.07 E.01672
M73 Q4 S299
G1 X235.69 Y141.558 E4.67797
G1 X235.69 Y142.091 E.01672
G1 X129.669 Y36.07 E4.70162
G1 X129.135 Y36.07 E.01672
G1 X235.69 Y142.624 E4.72527
G1 X235.69 Y143.158 E.01672
G1 X128.602 Y36.07 E4.74892
G1 X128.069 Y36.07 E.01672
G1 X235.69 Y143.691 E4.77257
G1 X235.69 Y144.224 E.01672
G1 X127.535 Y36.07 E4.79622
G1 X127.002 Y36.07 E.01672
G1 X235.69 Y144.758 E4.81987
G1 X235.69 Y145.291 E.01672
M73 P5 R286
M73 Q4 S298
G1 X126.469 Y36.07 E4.84353
G1 X125.935 Y36.07 E.01672
G1 X235.69 Y145.824 E4.86718
G1 X235.69 Y146.358 E.01672
G1 X125.402 Y36.07 E4.89083
G1 X124.869 Y36.07 E.01672
G1 X235.69 Y146.891 E4.91448
G1 X235.69 Y147.424 E.01672
M73 Q5 S298
G1 X124.335 Y36.07 E4.93813
G1 X123.802 Y36.07 E.01672
G1 X235.69 Y147.958 E4.96178
G1 X235.69 Y148.491 E.01672
G1 X123.269 Y36.07 E4.98543
G1 X122.735 Y36.07 E.01672
G1 X235.69 Y149.024 E5.00908
G1 X235.69 Y149.558 E.01672
M73 P5 R285
M73 Q5 S297
G1 X122.202 Y36.07 E5.03273
G1 X121.669 Y36.07 E.01672
G1 X235.69 Y150.091 E5.05638
G1 X235.69 Y150.624 E.01672
G1 X121.135 Y36.07 E5.08003
G1 X120.602 Y36.07 E.01672
G1 X235.69 Y151.158 E5.10368
G1 X235.69 Y151.691 E.01672
G1 X120.069 Y36.07 E5.12734
G1 X119.535 Y36.07 E.01672
G1 X235.69 Y152.224 E5.15099
G1 X235.69 Y152.757 E.01672
G1 X119.002 Y36.07 E5.17464
G1 X118.469 Y36.07 E.01672
M73 P5 R284
M73 Q5 S296
G1 X235.69 Y153.291 E5.19829
G1 X235.69 Y153.824 E.01672
G1 X117.935 Y36.07 E5.22194
G1 X117.402 Y36.07 E.01672
G1 X235.69 Y154.357 E5.24559
G1 X235.69 Y154.891 E.01672
G1 X116.869 Y36.07 E5.26924
G1 X116.335 Y36.07 E.01672
G1 X235.69 Y155.424 E5.29289
G1 X235.69 Y155.957 E.01672
G1 X115.802 Y36.07 E5.31654
G1 X115.269 Y36.07 E.01672
G1 X235.69 Y156.491 E5.34019
G1 X235.69 Y157.024 E.01672
M73 P6 R283
G1 X114.736 Y36.07 E5.36384
G1 X114.202 Y36.07 E.01672
M73 Q5 S295
G1 X235.69 Y157.557 E5.38749
G1 X235.69 Y158.091 E.01672
G1 X113.669 Y36.07 E5.41115
